
;Exported by FreeCAD
;Post Processor: centroid_post
;CAM file: /home/androiders/pedalboard cad/ac connector.fcstd
;Output Time: 2019-05-04 09:36:03.885618
G90 G80 G40 G49
;T1=Default_Tool001
;begin preamble
G53 G00 G17
G21
;begin operation
;Default Tool001
M3 S12000
;end operation: Default Tool001
;begin operation
;body hole
G0 Z5.0000
G0
G0 Z0.0000
G1 X-0.0000 Y-6.9000 Z-2.0000 F1800.0
G1 X-9.4182 Y-6.9000 Z-2.0000 F1800.0
G2 X-11.0000 Y-5.3182 Z-2.0000 I-0.0655 J1.5164 F1800.0
G1 X-11.0000 Y2.7645 Z-2.0000 F1800.0
G1 X-11.0000 Y-5.3182 Z-2.0000 F1800.0
G3 X-9.4182 Y-6.9000 Z-2.0000 I1.5164 J-0.0655 F1800.0
G1 X-4.5000 Y-6.9000 Z-2.0000 F1800.0
G1 X-4.5000 Y-8.9000 Z-2.0000 F1800.0
G1 X-9.4836 Y-8.9000 Z-2.0000 F1800.0
G2 X-13.0000 Y-5.3836 Z-2.0000 I-0.0137 J3.5027 F1800.0
G1 X-13.0000 Y3.5683 Z-2.0000 F1800.0
G2 X-12.9826 Y3.6103 Z-2.0000 I0.0401 J0.0080 F1800.0
G1 X-7.7103 Y8.8826 Z-2.0000 F1800.0
G2 X-7.6683 Y8.9000 Z-2.0000 I0.0340 J-0.0227 F1800.0
G1 X7.6683 Y8.9000 Z-2.0000 F1800.0
G2 X7.7103 Y8.8826 Z-2.0000 I0.0080 J-0.0401 F1800.0
G1 X12.9826 Y3.6103 Z-2.0000 F1800.0
G2 X13.0000 Y3.5683 Z-2.0000 I-0.0227 J-0.0340 F1800.0
G1 X13.0000 Y-5.3836 Z-2.0000 F1800.0
G2 X9.4836 Y-8.9000 Z-2.0000 I-3.5027 J-0.0137 F1800.0
G1 X-4.5000 Y-8.9000 Z-2.0000 F1800.0
G1 X-4.5000 Y-6.9000 Z-2.0000 F1800.0
G1 X9.4182 Y-6.9000 Z-2.0000 F1800.0
G3 X11.0000 Y-5.3182 Z-2.0000 I0.0655 J1.5164 F1800.0
G1 X11.0000 Y2.7645 Z-2.0000 F1800.0
G1 X6.8645 Y6.9000 Z-2.0000 F1800.0
G1 X-6.8645 Y6.9000 Z-2.0000 F1800.0
G1 X-11.0000 Y2.7645 Z-2.0000 F1800.0
G1 X-6.8645 Y6.9000 Z-2.0000 F1800.0
G1 X6.8645 Y6.9000 Z-2.0000 F1800.0
G1 X11.0000 Y2.7645 Z-2.0000 F1800.0
G1 X11.0000 Y-5.3182 Z-2.0000 F1800.0
G2 X9.4182 Y-6.9000 Z-2.0000 I-1.5164 J-0.0655 F1800.0
G1 X-0.0000 Y-6.9000 Z-2.0000 F1800.0
G1 X-0.0000 Y-6.9000 Z-4.0000 F1800.0
G1 X-9.4182 Y-6.9000 Z-4.0000 F1800.0
G2 X-11.0000 Y-5.3182 Z-4.0000 I-0.0655 J1.5164 F1800.0
G1 X-11.0000 Y2.7645 Z-4.0000 F1800.0
G1 X-11.0000 Y-5.3182 Z-4.0000 F1800.0
G3 X-9.4182 Y-6.9000 Z-4.0000 I1.5164 J-0.0655 F1800.0
G1 X-4.5000 Y-6.9000 Z-4.0000 F1800.0
G1 X-4.5000 Y-8.9000 Z-4.0000 F1800.0
G1 X-9.4836 Y-8.9000 Z-4.0000 F1800.0
G2 X-13.0000 Y-5.3836 Z-4.0000 I-0.0137 J3.5027 F1800.0
G1 X-13.0000 Y3.5683 Z-4.0000 F1800.0
G2 X-12.9826 Y3.6103 Z-4.0000 I0.0401 J0.0080 F1800.0
G1 X-7.7103 Y8.8826 Z-4.0000 F1800.0
G2 X-7.6683 Y8.9000 Z-4.0000 I0.0340 J-0.0227 F1800.0
G1 X7.6683 Y8.9000 Z-4.0000 F1800.0
G2 X7.7103 Y8.8826 Z-4.0000 I0.0080 J-0.0401 F1800.0
G1 X12.9826 Y3.6103 Z-4.0000 F1800.0
G2 X13.0000 Y3.5683 Z-4.0000 I-0.0227 J-0.0340 F1800.0
G1 X13.0000 Y-5.3836 Z-4.0000 F1800.0
G2 X9.4836 Y-8.9000 Z-4.0000 I-3.5027 J-0.0137 F1800.0
G1 X-4.5000 Y-8.9000 Z-4.0000 F1800.0
G1 X-4.5000 Y-6.9000 Z-4.0000 F1800.0
G1 X9.4182 Y-6.9000 Z-4.0000 F1800.0
G3 X11.0000 Y-5.3182 Z-4.0000 I0.0655 J1.5164 F1800.0
G1 X11.0000 Y2.7645 Z-4.0000 F1800.0
G1 X6.8645 Y6.9000 Z-4.0000 F1800.0
G1 X-6.8645 Y6.9000 Z-4.0000 F1800.0
G1 X-11.0000 Y2.7645 Z-4.0000 F1800.0
G1 X-6.8645 Y6.9000 Z-4.0000 F1800.0
G1 X6.8645 Y6.9000 Z-4.0000 F1800.0
G1 X11.0000 Y2.7645 Z-4.0000 F1800.0
G1 X11.0000 Y-5.3182 Z-4.0000 F1800.0
G2 X9.4182 Y-6.9000 Z-4.0000 I-1.5164 J-0.0655 F1800.0
G1 X-0.0000 Y-6.9000 Z-4.0000 F1800.0
G1 X-0.0000 Y-6.9000 Z-6.0000 F1800.0
G1 X-9.4182 Y-6.9000 Z-6.0000 F1800.0
G2 X-11.0000 Y-5.3182 Z-6.0000 I-0.0655 J1.5164 F1800.0
G1 X-11.0000 Y2.7645 Z-6.0000 F1800.0
G1 X-11.0000 Y-5.3182 Z-6.0000 F1800.0
G3 X-9.4182 Y-6.9000 Z-6.0000 I1.5164 J-0.0655 F1800.0
G1 X-4.5000 Y-6.9000 Z-6.0000 F1800.0
G1 X-4.5000 Y-8.9000 Z-6.0000 F1800.0
G1 X-9.4836 Y-8.9000 Z-6.0000 F1800.0
G2 X-13.0000 Y-5.3836 Z-6.0000 I-0.0137 J3.5027 F1800.0
G1 X-13.0000 Y3.5683 Z-6.0000 F1800.0
G2 X-12.9826 Y3.6103 Z-6.0000 I0.0401 J0.0080 F1800.0
G1 X-7.7103 Y8.8826 Z-6.0000 F1800.0
G2 X-7.6683 Y8.9000 Z-6.0000 I0.0340 J-0.0227 F1800.0
G1 X7.6683 Y8.9000 Z-6.0000 F1800.0
G2 X7.7103 Y8.8826 Z-6.0000 I0.0080 J-0.0401 F1800.0
G1 X12.9826 Y3.6103 Z-6.0000 F1800.0
G2 X13.0000 Y3.5683 Z-6.0000 I-0.0227 J-0.0340 F1800.0
G1 X13.0000 Y-5.3836 Z-6.0000 F1800.0
G2 X9.4836 Y-8.9000 Z-6.0000 I-3.5027 J-0.0137 F1800.0
G1 X-4.5000 Y-8.9000 Z-6.0000 F1800.0
G1 X-4.5000 Y-6.9000 Z-6.0000 F1800.0
G1 X9.4182 Y-6.9000 Z-6.0000 F1800.0
G3 X11.0000 Y-5.3182 Z-6.0000 I0.0655 J1.5164 F1800.0
G1 X11.0000 Y2.7645 Z-6.0000 F1800.0
G1 X6.8645 Y6.9000 Z-6.0000 F1800.0
G1 X-6.8645 Y6.9000 Z-6.0000 F1800.0
G1 X-11.0000 Y2.7645 Z-6.0000 F1800.0
G1 X-6.8645 Y6.9000 Z-6.0000 F1800.0
G1 X6.8645 Y6.9000 Z-6.0000 F1800.0
G1 X11.0000 Y2.7645 Z-6.0000 F1800.0
G1 X11.0000 Y-5.3182 Z-6.0000 F1800.0
G2 X9.4182 Y-6.9000 Z-6.0000 I-1.5164 J-0.0655 F1800.0
G1 X-0.0000 Y-6.9000 Z-6.0000 F1800.0
G1 X-0.0000 Y-6.9000 Z-8.0000 F1800.0
G1 X-9.4182 Y-6.9000 Z-8.0000 F1800.0
G2 X-11.0000 Y-5.3182 Z-8.0000 I-0.0655 J1.5164 F1800.0
G1 X-11.0000 Y2.7645 Z-8.0000 F1800.0
G1 X-11.0000 Y-5.3182 Z-8.0000 F1800.0
G3 X-9.4182 Y-6.9000 Z-8.0000 I1.5164 J-0.0655 F1800.0
G1 X-4.5000 Y-6.9000 Z-8.0000 F1800.0
G1 X-4.5000 Y-8.9000 Z-8.0000 F1800.0
G1 X-9.4836 Y-8.9000 Z-8.0000 F1800.0
G2 X-13.0000 Y-5.3836 Z-8.0000 I-0.0137 J3.5027 F1800.0
G1 X-13.0000 Y3.5683 Z-8.0000 F1800.0
G2 X-12.9826 Y3.6103 Z-8.0000 I0.0401 J0.0080 F1800.0
G1 X-7.7103 Y8.8826 Z-8.0000 F1800.0
G2 X-7.6683 Y8.9000 Z-8.0000 I0.0340 J-0.0227 F1800.0
G1 X7.6683 Y8.9000 Z-8.0000 F1800.0
G2 X7.7103 Y8.8826 Z-8.0000 I0.0080 J-0.0401 F1800.0
G1 X12.9826 Y3.6103 Z-8.0000 F1800.0
G2 X13.0000 Y3.5683 Z-8.0000 I-0.0227 J-0.0340 F1800.0
G1 X13.0000 Y-5.3836 Z-8.0000 F1800.0
G2 X9.4836 Y-8.9000 Z-8.0000 I-3.5027 J-0.0137 F1800.0
G1 X-4.5000 Y-8.9000 Z-8.0000 F1800.0
G1 X-4.5000 Y-6.9000 Z-8.0000 F1800.0
G1 X9.4182 Y-6.9000 Z-8.0000 F1800.0
G3 X11.0000 Y-5.3182 Z-8.0000 I0.0655 J1.5164 F1800.0
G1 X11.0000 Y2.7645 Z-8.0000 F1800.0
G1 X6.8645 Y6.9000 Z-8.0000 F1800.0
G1 X-6.8645 Y6.9000 Z-8.0000 F1800.0
G1 X-11.0000 Y2.7645 Z-8.0000 F1800.0
G1 X-6.8645 Y6.9000 Z-8.0000 F1800.0
G1 X6.8645 Y6.9000 Z-8.0000 F1800.0
G1 X11.0000 Y2.7645 Z-8.0000 F1800.0
G1 X11.0000 Y-5.3182 Z-8.0000 F1800.0
G2 X9.4182 Y-6.9000 Z-8.0000 I-1.5164 J-0.0655 F1800.0
G1 X-0.0000 Y-6.9000 Z-8.0000 F1800.0
G1 X-0.0000 Y-6.9000 Z-10.0000 F1800.0
G1 X-9.4182 Y-6.9000 Z-10.0000 F1800.0
G2 X-11.0000 Y-5.3182 Z-10.0000 I-0.0655 J1.5164 F1800.0
G1 X-11.0000 Y2.7645 Z-10.0000 F1800.0
G1 X-11.0000 Y-5.3182 Z-10.0000 F1800.0
G3 X-9.4182 Y-6.9000 Z-10.0000 I1.5164 J-0.0655 F1800.0
G1 X-4.5000 Y-6.9000 Z-10.0000 F1800.0
G1 X-4.5000 Y-8.9000 Z-10.0000 F1800.0
G1 X-9.4836 Y-8.9000 Z-10.0000 F1800.0
G2 X-13.0000 Y-5.3836 Z-10.0000 I-0.0137 J3.5027 F1800.0
G1 X-13.0000 Y3.5683 Z-10.0000 F1800.0
G2 X-12.9826 Y3.6103 Z-10.0000 I0.0401 J0.0080 F1800.0
G1 X-7.7103 Y8.8826 Z-10.0000 F1800.0
G2 X-7.6683 Y8.9000 Z-10.0000 I0.0340 J-0.0227 F1800.0
G1 X7.6683 Y8.9000 Z-10.0000 F1800.0
G2 X7.7103 Y8.8826 Z-10.0000 I0.0080 J-0.0401 F1800.0
G1 X12.9826 Y3.6103 Z-10.0000 F1800.0
G2 X13.0000 Y3.5683 Z-10.0000 I-0.0227 J-0.0340 F1800.0
G1 X13.0000 Y-5.3836 Z-10.0000 F1800.0
G2 X9.4836 Y-8.9000 Z-10.0000 I-3.5027 J-0.0137 F1800.0
G1 X-4.5000 Y-8.9000 Z-10.0000 F1800.0
G1 X-4.5000 Y-6.9000 Z-10.0000 F1800.0
G1 X9.4182 Y-6.9000 Z-10.0000 F1800.0
G3 X11.0000 Y-5.3182 Z-10.0000 I0.0655 J1.5164 F1800.0
G1 X11.0000 Y2.7645 Z-10.0000 F1800.0
G1 X6.8645 Y6.9000 Z-10.0000 F1800.0
G1 X-6.8645 Y6.9000 Z-10.0000 F1800.0
G1 X-11.0000 Y2.7645 Z-10.0000 F1800.0
G1 X-6.8645 Y6.9000 Z-10.0000 F1800.0
G1 X6.8645 Y6.9000 Z-10.0000 F1800.0
G1 X11.0000 Y2.7645 Z-10.0000 F1800.0
G1 X11.0000 Y-5.3182 Z-10.0000 F1800.0
G2 X9.4182 Y-6.9000 Z-10.0000 I-1.5164 J-0.0655 F1800.0
G1 X-0.0000 Y-6.9000 Z-10.0000 F1800.0
G1 X-0.0000 Y-6.9000 Z-12.0000 F1800.0
G1 X-9.4182 Y-6.9000 Z-12.0000 F1800.0
G2 X-11.0000 Y-5.3182 Z-12.0000 I-0.0655 J1.5164 F1800.0
G1 X-11.0000 Y2.7645 Z-12.0000 F1800.0
G1 X-11.0000 Y-5.3182 Z-12.0000 F1800.0
G3 X-9.4182 Y-6.9000 Z-12.0000 I1.5164 J-0.0655 F1800.0
G1 X-4.5000 Y-6.9000 Z-12.0000 F1800.0
G1 X-4.5000 Y-8.9000 Z-12.0000 F1800.0
G1 X-9.4836 Y-8.9000 Z-12.0000 F1800.0
G2 X-13.0000 Y-5.3836 Z-12.0000 I-0.0137 J3.5027 F1800.0
G1 X-13.0000 Y3.5683 Z-12.0000 F1800.0
G2 X-12.9826 Y3.6103 Z-12.0000 I0.0401 J0.0080 F1800.0
G1 X-7.7103 Y8.8826 Z-12.0000 F1800.0
G2 X-7.6683 Y8.9000 Z-12.0000 I0.0340 J-0.0227 F1800.0
G1 X7.6683 Y8.9000 Z-12.0000 F1800.0
G2 X7.7103 Y8.8826 Z-12.0000 I0.0080 J-0.0401 F1800.0
G1 X12.9826 Y3.6103 Z-12.0000 F1800.0
G2 X13.0000 Y3.5683 Z-12.0000 I-0.0227 J-0.0340 F1800.0
G1 X13.0000 Y-5.3836 Z-12.0000 F1800.0
G2 X9.4836 Y-8.9000 Z-12.0000 I-3.5027 J-0.0137 F1800.0
G1 X-4.5000 Y-8.9000 Z-12.0000 F1800.0
G1 X-4.5000 Y-6.9000 Z-12.0000 F1800.0
G1 X9.4182 Y-6.9000 Z-12.0000 F1800.0
G3 X11.0000 Y-5.3182 Z-12.0000 I0.0655 J1.5164 F1800.0
G1 X11.0000 Y2.7645 Z-12.0000 F1800.0
G1 X6.8645 Y6.9000 Z-12.0000 F1800.0
G1 X-6.8645 Y6.9000 Z-12.0000 F1800.0
G1 X-11.0000 Y2.7645 Z-12.0000 F1800.0
G1 X-6.8645 Y6.9000 Z-12.0000 F1800.0
G1 X6.8645 Y6.9000 Z-12.0000 F1800.0
G1 X11.0000 Y2.7645 Z-12.0000 F1800.0
G1 X11.0000 Y-5.3182 Z-12.0000 F1800.0
G2 X9.4182 Y-6.9000 Z-12.0000 I-1.5164 J-0.0655 F1800.0
G1 X-0.0000 Y-6.9000 Z-12.0000 F1800.0
G0 Z5.0000
;end operation: body hole
;begin postamble
M5 M25
G49 H0
G90 G80 G40 G49
M99
