
;Exported by FreeCAD
;Post Processor: centroid_post
;CAM file: 
;Output Time: 2019-05-01 16:57:56.909669
G90 G80 G40 G49
;T1=Default_Tool001
;T1=Default_Tool001
;begin preamble
G53 G00 G17
G21
;begin operation
;Default Tool001
M3 S12000
;end operation: Default Tool001
;begin operation
;base surface
G0 Z5.0000
G0
G0 Z0.0000
G1 X-0.0000 Y1.2000 Z-2.0000 F1800.0
G1 X-11.1728 Y1.2000 Z-2.0000 F1800.0
G1 X-12.5110 Y-0.0000 Z-2.0000 F1800.0
G1 X-11.1728 Y-1.2000 Z-2.0000 F1800.0
G1 X11.1728 Y-1.2000 Z-2.0000 F1800.0
G1 X12.5110 Y-0.0000 Z-2.0000 F1800.0
G1 X11.1728 Y1.2000 Z-2.0000 F1800.0
G1 X-0.0000 Y1.2000 Z-2.0000 F1800.0
G0 X-0.0000 Y1.2000 Z5.0000
G0 X-0.0000 Y3.0000 Z5.0000
G0 X-0.0000 Y3.0000 Z1.0000
G1 X-0.0000 Y3.0000 Z-2.0000 F1800.0
G1 X-11.8617 Y3.0000 Z-2.0000 F1800.0
G1 X-15.2070 Y-0.0000 Z-2.0000 F1800.0
G1 X-11.8617 Y-3.0000 Z-2.0000 F1800.0
G1 X11.8617 Y-3.0000 Z-2.0000 F1800.0
G1 X15.2070 Y-0.0000 Z-2.0000 F1800.0
G1 X11.8617 Y3.0000 Z-2.0000 F1800.0
G1 X-0.0000 Y3.0000 Z-2.0000 F1800.0
G0 X-0.0000 Y3.0000 Z5.0000
G0 X-0.0000 Y4.8000 Z5.0000
G0 X-0.0000 Y4.8000 Z1.0000
G1 X-0.0000 Y4.8000 Z-2.0000 F1800.0
G1 X-12.5506 Y4.8000 Z-2.0000 F1800.0
G1 X-17.9031 Y-0.0000 Z-2.0000 F1800.0
G1 X-12.5506 Y-4.8000 Z-2.0000 F1800.0
G1 X12.5506 Y-4.8000 Z-2.0000 F1800.0
G1 X17.9031 Y-0.0000 Z-2.0000 F1800.0
G1 X12.5506 Y4.8000 Z-2.0000 F1800.0
G1 X-0.0000 Y4.8000 Z-2.0000 F1800.0
G0 X-0.0000 Y4.8000 Z5.0000
G0 X-0.0000 Y6.6000 Z5.0000
G0 X-0.0000 Y6.6000 Z1.0000
G1 X-0.0000 Y6.6000 Z-2.0000 F1800.0
G1 X-13.2395 Y6.6000 Z-2.0000 F1800.0
G1 X-20.1643 Y0.3899 Z-2.0000 F1800.0
G3 X-20.1643 Y-0.3899 Z-2.0000 I0.2206 J-0.3899 F1800.0
G1 X-13.2395 Y-6.6000 Z-2.0000 F1800.0
G1 X13.2395 Y-6.6000 Z-2.0000 F1800.0
G1 X20.1643 Y-0.3899 Z-2.0000 F1800.0
G3 X20.1643 Y0.3899 Z-2.0000 I-0.2206 J0.3899 F1800.0
G1 X13.2395 Y6.6000 Z-2.0000 F1800.0
G1 X-0.0000 Y6.6000 Z-2.0000 F1800.0
G0 X-0.0000 Y6.6000 Z5.0000
G0 X-0.0000 Y8.4000 Z5.0000
G0 X-0.0000 Y8.4000 Z1.0000
G1 X-0.0000 Y8.4000 Z-2.0000 F1800.0
G1 X-13.4004 Y8.4000 Z-2.0000 F1800.0
G3 X-14.3144 Y8.0538 Z-2.0000 I-0.0485 J-1.2516 F1800.0
G1 X-21.4063 Y1.6939 Z-2.0000 F1800.0
G3 X-21.4063 Y-1.6939 Z-2.0000 I1.4248 J-1.6939 F1800.0
G1 X-14.3144 Y-8.0538 Z-2.0000 F1800.0
G3 X-13.4004 Y-8.4000 Z-2.0000 I0.8655 J0.9056 F1800.0
G1 X13.4004 Y-8.4000 Z-2.0000 F1800.0
G3 X14.3144 Y-8.0538 Z-2.0000 I0.0485 J1.2516 F1800.0
G1 X21.4063 Y-1.6939 Z-2.0000 F1800.0
G3 X21.4063 Y1.6939 Z-2.0000 I-1.4248 J1.6939 F1800.0
G1 X14.3144 Y8.0538 Z-2.0000 F1800.0
G3 X13.4004 Y8.4000 Z-2.0000 I-0.8655 J-0.9056 F1800.0
G1 X-0.0000 Y8.4000 Z-2.0000 F1800.0
G0 X-0.0000 Y8.4000 Z5.0000
G0 X-0.0000 Y10.2000 Z5.0000
G0 X-0.0000 Y10.2000 Z1.0000
G1 X-0.0000 Y10.2000 Z-2.0000 F1800.0
G1 X-13.4446 Y10.2000 Z-2.0000 F1800.0
G3 X-15.4878 Y9.4193 Z-2.0000 I-0.0186 J-3.0154 F1800.0
G1 X-22.6482 Y2.9980 Z-2.0000 F1800.0
G3 X-22.6482 Y-2.9980 Z-2.0000 I2.6539 J-2.9980 F1800.0
G1 X-15.4878 Y-9.4193 Z-2.0000 F1800.0
G3 X-13.4446 Y-10.2000 Z-2.0000 I2.0246 J2.2347 F1800.0
G1 X13.4446 Y-10.2000 Z-2.0000 F1800.0
G3 X15.4878 Y-9.4193 Z-2.0000 I0.0186 J3.0154 F1800.0
G1 X22.6482 Y-2.9980 Z-2.0000 F1800.0
G3 X22.6482 Y2.9980 Z-2.0000 I-2.6539 J2.9980 F1800.0
G1 X15.4878 Y9.4193 Z-2.0000 F1800.0
G3 X13.4446 Y10.2000 Z-2.0000 I-2.0246 J-2.2347 F1800.0
G1 X-0.0000 Y10.2000 Z-2.0000 F1800.0
G1 X-0.0000 Y10.2000 Z-3.0000 F1800.0
G1 X-13.4446 Y10.2000 Z-3.0000 F1800.0
G3 X-15.4877 Y9.4194 Z-3.0000 I-0.0186 J-3.0156 F1800.0
G1 X-22.6482 Y2.9980 Z-3.0000 F1800.0
G3 X-22.6482 Y-2.9980 Z-3.0000 I2.6539 J-2.9980 F1800.0
G1 X-15.4878 Y-9.4193 Z-3.0000 F1800.0
G3 X-13.4446 Y-10.2000 Z-3.0000 I2.0246 J2.2347 F1800.0
G1 X13.4446 Y-10.2000 Z-3.0000 F1800.0
G3 X15.4877 Y-9.4194 Z-3.0000 I0.0186 J3.0156 F1800.0
G1 X22.6482 Y-2.9980 Z-3.0000 F1800.0
G3 X22.6482 Y2.9980 Z-3.0000 I-2.6539 J2.9980 F1800.0
G1 X15.4878 Y9.4193 Z-3.0000 F1800.0
G3 X13.4446 Y10.2000 Z-3.0000 I-2.0246 J-2.2347 F1800.0
G1 X-0.0000 Y10.2000 Z-3.0000 F1800.0
G0 X-0.0000 Y10.2000 Z5.0000
G0 X-0.0000 Y8.4000 Z5.0000
G0 X-0.0000 Y8.4000 Z0.0000
G1 X-0.0000 Y8.4000 Z-3.0000 F1800.0
G1 X-13.4004 Y8.4000 Z-3.0000 F1800.0
G3 X-14.3140 Y8.0542 Z-3.0000 I-0.0483 J-1.2522 F1800.0
G1 X-21.4063 Y1.6939 Z-3.0000 F1800.0
G3 X-21.4063 Y-1.6939 Z-3.0000 I1.4248 J-1.6939 F1800.0
G1 X-14.3144 Y-8.0538 Z-3.0000 F1800.0
G3 X-13.4004 Y-8.4000 Z-3.0000 I0.8655 J0.9056 F1800.0
G1 X13.4004 Y-8.4000 Z-3.0000 F1800.0
G3 X14.3140 Y-8.0542 Z-3.0000 I0.0483 J1.2522 F1800.0
G1 X21.4063 Y-1.6939 Z-3.0000 F1800.0
G3 X21.4063 Y1.6939 Z-3.0000 I-1.4248 J1.6939 F1800.0
G1 X14.3144 Y8.0538 Z-3.0000 F1800.0
G3 X13.4004 Y8.4000 Z-3.0000 I-0.8655 J-0.9056 F1800.0
G1 X-0.0000 Y8.4000 Z-3.0000 F1800.0
G0 X-0.0000 Y8.4000 Z5.0000
G0 X-0.0000 Y6.6000 Z5.0000
G0 X-0.0000 Y6.6000 Z0.0000
G1 X-0.0000 Y6.6000 Z-3.0000 F1800.0
G1 X-13.2395 Y6.6000 Z-3.0000 F1800.0
G1 X-20.1643 Y0.3899 Z-3.0000 F1800.0
G3 X-20.1643 Y-0.3899 Z-3.0000 I0.2206 J-0.3899 F1800.0
G1 X-13.2395 Y-6.6000 Z-3.0000 F1800.0
G1 X13.2395 Y-6.6000 Z-3.0000 F1800.0
G1 X20.1643 Y-0.3899 Z-3.0000 F1800.0
G3 X20.1643 Y0.3899 Z-3.0000 I-0.2206 J0.3899 F1800.0
G1 X13.2395 Y6.6000 Z-3.0000 F1800.0
G1 X-0.0000 Y6.6000 Z-3.0000 F1800.0
G0 X-0.0000 Y6.6000 Z5.0000
G0 X-0.0000 Y4.8000 Z5.0000
G0 X-0.0000 Y4.8000 Z0.0000
G1 X-0.0000 Y4.8000 Z-3.0000 F1800.0
G1 X-12.5506 Y4.8000 Z-3.0000 F1800.0
G1 X-17.9031 Y-0.0000 Z-3.0000 F1800.0
G1 X-12.5506 Y-4.8000 Z-3.0000 F1800.0
G1 X12.5506 Y-4.8000 Z-3.0000 F1800.0
G1 X17.9031 Y-0.0000 Z-3.0000 F1800.0
G1 X12.5506 Y4.8000 Z-3.0000 F1800.0
G1 X-0.0000 Y4.8000 Z-3.0000 F1800.0
G0 X-0.0000 Y4.8000 Z5.0000
G0 X-0.0000 Y3.0000 Z5.0000
G0 X-0.0000 Y3.0000 Z0.0000
G1 X-0.0000 Y3.0000 Z-3.0000 F1800.0
G1 X-11.8617 Y3.0000 Z-3.0000 F1800.0
G1 X-15.2070 Y-0.0000 Z-3.0000 F1800.0
G1 X-11.8617 Y-3.0000 Z-3.0000 F1800.0
G1 X11.8617 Y-3.0000 Z-3.0000 F1800.0
G1 X15.2070 Y-0.0000 Z-3.0000 F1800.0
G1 X11.8617 Y3.0000 Z-3.0000 F1800.0
G1 X-0.0000 Y3.0000 Z-3.0000 F1800.0
G0 X-0.0000 Y3.0000 Z5.0000
G0 X-0.0000 Y1.2000 Z5.0000
G0 X-0.0000 Y1.2000 Z0.0000
G1 X-0.0000 Y1.2000 Z-3.0000 F1800.0
G1 X-11.1728 Y1.2000 Z-3.0000 F1800.0
G1 X-12.5110 Y-0.0000 Z-3.0000 F1800.0
G1 X-11.1728 Y-1.2000 Z-3.0000 F1800.0
G1 X11.1728 Y-1.2000 Z-3.0000 F1800.0
G1 X12.5110 Y-0.0000 Z-3.0000 F1800.0
G1 X11.1728 Y1.2000 Z-3.0000 F1800.0
G1 X-0.0000 Y1.2000 Z-3.0000 F1800.0
G0 Z5.0000
;end operation: base surface
;begin operation
;Default Tool001
M3 S12000
;end operation: Default Tool001
;begin operation
;body hole
G0 Z2.0000
G0
G0 Z0.0000
G1 X0.0000 Y0.4000 Z-5.0000 F1800.0
G1 X-4.1721 Y0.4000 Z-5.0000 F1800.0
G1 X-4.5000 Y0.0721 Z-5.0000 F1800.0
G1 X-4.5000 Y-0.4000 Z-5.0000 F1800.0
G1 X4.5000 Y-0.4000 Z-5.0000 F1800.0
G1 X4.5000 Y0.0721 Z-5.0000 F1800.0
G1 X4.1721 Y0.4000 Z-5.0000 F1800.0
G1 X0.0000 Y0.4000 Z-5.0000 F1800.0
G0 X0.0000 Y0.4000 Z2.0000
G0 X0.0000 Y2.4000 Z2.0000
G0 X0.0000 Y2.4000 Z-5.0000
G1 X-5.0005 Y2.4000 Z-5.0000 F1800.0
G1 X-6.5000 Y0.9005 Z-5.0000 F1800.0
G1 X-6.5000 Y-2.4000 Z-5.0000 F1800.0
G1 X6.5000 Y-2.4000 Z-5.0000 F1800.0
G1 X6.5000 Y0.9005 Z-5.0000 F1800.0
G1 X5.0005 Y2.4000 Z-5.0000 F1800.0
G1 X0.0000 Y2.4000 Z-5.0000 F1800.0
G0 X0.0000 Y2.4000 Z2.0000
G0 X0.0000 Y4.4000 Z2.0000
G0 X0.0000 Y4.4000 Z-5.0000
G1 X-5.8289 Y4.4000 Z-5.0000 F1800.0
G1 X-8.5000 Y1.7289 Z-5.0000 F1800.0
G1 X-8.5000 Y-4.4000 Z-5.0000 F1800.0
G1 X8.5000 Y-4.4000 Z-5.0000 F1800.0
G1 X8.5000 Y1.7289 Z-5.0000 F1800.0
G1 X5.8289 Y4.4000 Z-5.0000 F1800.0
G1 X0.0000 Y4.4000 Z-5.0000 F1800.0
G0 X0.0000 Y4.4000 Z2.0000
G0 X0.0000 Y6.4000 Z2.0000
G0 X0.0000 Y6.4000 Z-5.0000
G1 X-6.6574 Y6.4000 Z-5.0000 F1800.0
G1 X-10.5000 Y2.5574 Z-5.0000 F1800.0
G1 X-10.5000 Y-5.3018 Z-5.0000 F1800.0
G3 X-9.4018 Y-6.4000 Z-5.0000 I1.0223 J-0.0759 F1800.0
G1 X9.4018 Y-6.4000 Z-5.0000 F1800.0
G3 X10.5000 Y-5.3018 Z-5.0000 I0.0759 J1.0223 F1800.0
G1 X10.5000 Y2.5574 Z-5.0000 F1800.0
G1 X6.6574 Y6.4000 Z-5.0000 F1800.0
G1 X0.0000 Y6.4000 Z-5.0000 F1800.0
G0 X0.0000 Y6.4000 Z2.0000
G0 X0.0000 Y8.4000 Z2.0000
G0 X0.0000 Y8.4000 Z-5.0000
G1 X-7.4858 Y8.4000 Z-5.0000 F1800.0
G1 X-12.5000 Y3.3858 Z-5.0000 F1800.0
G1 X-12.5000 Y-5.3673 Z-5.0000 F1800.0
G3 X-9.4673 Y-8.4000 Z-5.0000 I3.0055 J-0.0273 F1800.0
G1 X9.4673 Y-8.4000 Z-5.0000 F1800.0
G3 X12.5000 Y-5.3673 Z-5.0000 I0.0273 J3.0055 F1800.0
G1 X12.5000 Y3.3858 Z-5.0000 F1800.0
G1 X7.4858 Y8.4000 Z-5.0000 F1800.0
G1 X0.0000 Y8.4000 Z-5.0000 F1800.0
G1 X0.0000 Y8.4000 Z-7.0000 F1800.0
G1 X-7.4858 Y8.4000 Z-7.0000 F1800.0
G1 X-12.5000 Y3.3858 Z-7.0000 F1800.0
G1 X-12.5000 Y-5.3673 Z-7.0000 F1800.0
G3 X-9.4673 Y-8.4000 Z-7.0000 I3.0055 J-0.0273 F1800.0
G1 X9.4673 Y-8.4000 Z-7.0000 F1800.0
G3 X12.5000 Y-5.3673 Z-7.0000 I0.0273 J3.0055 F1800.0
G1 X12.5000 Y3.3858 Z-7.0000 F1800.0
G1 X7.4858 Y8.4000 Z-7.0000 F1800.0
G1 X0.0000 Y8.4000 Z-7.0000 F1800.0
G0 X0.0000 Y8.4000 Z2.0000
G0 X0.0000 Y6.4000 Z2.0000
G0 X0.0000 Y6.4000 Z-7.0000
G1 X-6.6574 Y6.4000 Z-7.0000 F1800.0
G1 X-10.5000 Y2.5574 Z-7.0000 F1800.0
G1 X-10.5000 Y-5.3018 Z-7.0000 F1800.0
G3 X-9.4018 Y-6.4000 Z-7.0000 I1.0223 J-0.0759 F1800.0
G1 X9.4018 Y-6.4000 Z-7.0000 F1800.0
G3 X10.5000 Y-5.3018 Z-7.0000 I0.0759 J1.0223 F1800.0
G1 X10.5000 Y2.5574 Z-7.0000 F1800.0
G1 X6.6574 Y6.4000 Z-7.0000 F1800.0
G1 X0.0000 Y6.4000 Z-7.0000 F1800.0
G0 X0.0000 Y6.4000 Z2.0000
G0 X0.0000 Y4.4000 Z2.0000
G0 X0.0000 Y4.4000 Z-7.0000
G1 X-5.8289 Y4.4000 Z-7.0000 F1800.0
G1 X-8.5000 Y1.7289 Z-7.0000 F1800.0
G1 X-8.5000 Y-4.4000 Z-7.0000 F1800.0
G1 X8.5000 Y-4.4000 Z-7.0000 F1800.0
G1 X8.5000 Y1.7289 Z-7.0000 F1800.0
G1 X5.8289 Y4.4000 Z-7.0000 F1800.0
G1 X0.0000 Y4.4000 Z-7.0000 F1800.0
G0 X0.0000 Y4.4000 Z2.0000
G0 X0.0000 Y2.4000 Z2.0000
G0 X0.0000 Y2.4000 Z-7.0000
G1 X-5.0005 Y2.4000 Z-7.0000 F1800.0
G1 X-6.5000 Y0.9005 Z-7.0000 F1800.0
G1 X-6.5000 Y-2.4000 Z-7.0000 F1800.0
G1 X6.5000 Y-2.4000 Z-7.0000 F1800.0
G1 X6.5000 Y0.9005 Z-7.0000 F1800.0
G1 X5.0005 Y2.4000 Z-7.0000 F1800.0
G1 X0.0000 Y2.4000 Z-7.0000 F1800.0
G0 X0.0000 Y2.4000 Z2.0000
G0 X0.0000 Y0.4000 Z2.0000
G0 X0.0000 Y0.4000 Z-7.0000
G1 X-4.1721 Y0.4000 Z-7.0000 F1800.0
G1 X-4.5000 Y0.0721 Z-7.0000 F1800.0
G1 X-4.5000 Y-0.4000 Z-7.0000 F1800.0
G1 X4.5000 Y-0.4000 Z-7.0000 F1800.0
G1 X4.5000 Y0.0721 Z-7.0000 F1800.0
G1 X4.1721 Y0.4000 Z-7.0000 F1800.0
G1 X0.0000 Y0.4000 Z-7.0000 F1800.0
G1 X0.0000 Y0.4000 Z-9.0000 F1800.0
G1 X-4.1721 Y0.4000 Z-9.0000 F1800.0
G1 X-4.5000 Y0.0721 Z-9.0000 F1800.0
G1 X-4.5000 Y-0.4000 Z-9.0000 F1800.0
G1 X4.5000 Y-0.4000 Z-9.0000 F1800.0
G1 X4.5000 Y0.0721 Z-9.0000 F1800.0
G1 X4.1721 Y0.4000 Z-9.0000 F1800.0
G1 X0.0000 Y0.4000 Z-9.0000 F1800.0
G0 X0.0000 Y0.4000 Z2.0000
G0 X0.0000 Y2.4000 Z2.0000
G0 X0.0000 Y2.4000 Z-9.0000
G1 X-5.0005 Y2.4000 Z-9.0000 F1800.0
G1 X-6.5000 Y0.9005 Z-9.0000 F1800.0
G1 X-6.5000 Y-2.4000 Z-9.0000 F1800.0
G1 X6.5000 Y-2.4000 Z-9.0000 F1800.0
G1 X6.5000 Y0.9005 Z-9.0000 F1800.0
G1 X5.0005 Y2.4000 Z-9.0000 F1800.0
G1 X0.0000 Y2.4000 Z-9.0000 F1800.0
G0 X0.0000 Y2.4000 Z2.0000
G0 X0.0000 Y4.4000 Z2.0000
G0 X0.0000 Y4.4000 Z-9.0000
G1 X-5.8289 Y4.4000 Z-9.0000 F1800.0
G1 X-8.5000 Y1.7289 Z-9.0000 F1800.0
G1 X-8.5000 Y-4.4000 Z-9.0000 F1800.0
G1 X8.5000 Y-4.4000 Z-9.0000 F1800.0
G1 X8.5000 Y1.7289 Z-9.0000 F1800.0
G1 X5.8289 Y4.4000 Z-9.0000 F1800.0
G1 X0.0000 Y4.4000 Z-9.0000 F1800.0
G0 X0.0000 Y4.4000 Z2.0000
G0 X0.0000 Y6.4000 Z2.0000
G0 X0.0000 Y6.4000 Z-9.0000
G1 X-6.6574 Y6.4000 Z-9.0000 F1800.0
G1 X-10.5000 Y2.5574 Z-9.0000 F1800.0
G1 X-10.5000 Y-5.3018 Z-9.0000 F1800.0
G3 X-9.4018 Y-6.4000 Z-9.0000 I1.0223 J-0.0759 F1800.0
G1 X9.4018 Y-6.4000 Z-9.0000 F1800.0
G3 X10.5000 Y-5.3018 Z-9.0000 I0.0759 J1.0223 F1800.0
G1 X10.5000 Y2.5574 Z-9.0000 F1800.0
G1 X6.6574 Y6.4000 Z-9.0000 F1800.0
G1 X0.0000 Y6.4000 Z-9.0000 F1800.0
G0 X0.0000 Y6.4000 Z2.0000
G0 X0.0000 Y8.4000 Z2.0000
G0 X0.0000 Y8.4000 Z-9.0000
G1 X-7.4858 Y8.4000 Z-9.0000 F1800.0
G1 X-12.5000 Y3.3858 Z-9.0000 F1800.0
G1 X-12.5000 Y-5.3673 Z-9.0000 F1800.0
G3 X-9.4673 Y-8.4000 Z-9.0000 I3.0055 J-0.0273 F1800.0
G1 X9.4673 Y-8.4000 Z-9.0000 F1800.0
G3 X12.5000 Y-5.3673 Z-9.0000 I0.0273 J3.0055 F1800.0
G1 X12.5000 Y3.3858 Z-9.0000 F1800.0
G1 X7.4858 Y8.4000 Z-9.0000 F1800.0
G1 X0.0000 Y8.4000 Z-9.0000 F1800.0
G1 X0.0000 Y8.4000 Z-11.0000 F1800.0
G1 X-7.4858 Y8.4000 Z-11.0000 F1800.0
G1 X-12.5000 Y3.3858 Z-11.0000 F1800.0
G1 X-12.5000 Y-5.3673 Z-11.0000 F1800.0
G3 X-9.4673 Y-8.4000 Z-11.0000 I3.0055 J-0.0273 F1800.0
G1 X9.4673 Y-8.4000 Z-11.0000 F1800.0
G3 X12.5000 Y-5.3673 Z-11.0000 I0.0273 J3.0055 F1800.0
G1 X12.5000 Y3.3858 Z-11.0000 F1800.0
G1 X7.4858 Y8.4000 Z-11.0000 F1800.0
G1 X0.0000 Y8.4000 Z-11.0000 F1800.0
G0 X0.0000 Y8.4000 Z2.0000
G0 X0.0000 Y6.4000 Z2.0000
G0 X0.0000 Y6.4000 Z-11.0000
G1 X-6.6574 Y6.4000 Z-11.0000 F1800.0
G1 X-10.5000 Y2.5574 Z-11.0000 F1800.0
G1 X-10.5000 Y-5.3018 Z-11.0000 F1800.0
G3 X-9.4018 Y-6.4000 Z-11.0000 I1.0223 J-0.0759 F1800.0
G1 X9.4018 Y-6.4000 Z-11.0000 F1800.0
G3 X10.5000 Y-5.3018 Z-11.0000 I0.0759 J1.0223 F1800.0
G1 X10.5000 Y2.5574 Z-11.0000 F1800.0
G1 X6.6574 Y6.4000 Z-11.0000 F1800.0
G1 X0.0000 Y6.4000 Z-11.0000 F1800.0
G0 X0.0000 Y6.4000 Z2.0000
G0 X0.0000 Y4.4000 Z2.0000
G0 X0.0000 Y4.4000 Z-11.0000
G1 X-5.8289 Y4.4000 Z-11.0000 F1800.0
G1 X-8.5000 Y1.7289 Z-11.0000 F1800.0
G1 X-8.5000 Y-4.4000 Z-11.0000 F1800.0
G1 X8.5000 Y-4.4000 Z-11.0000 F1800.0
G1 X8.5000 Y1.7289 Z-11.0000 F1800.0
G1 X5.8289 Y4.4000 Z-11.0000 F1800.0
G1 X0.0000 Y4.4000 Z-11.0000 F1800.0
G0 X0.0000 Y4.4000 Z2.0000
G0 X0.0000 Y2.4000 Z2.0000
G0 X0.0000 Y2.4000 Z-11.0000
G1 X-5.0005 Y2.4000 Z-11.0000 F1800.0
G1 X-6.5000 Y0.9005 Z-11.0000 F1800.0
G1 X-6.5000 Y-2.4000 Z-11.0000 F1800.0
G1 X6.5000 Y-2.4000 Z-11.0000 F1800.0
G1 X6.5000 Y0.9005 Z-11.0000 F1800.0
G1 X5.0005 Y2.4000 Z-11.0000 F1800.0
G1 X0.0000 Y2.4000 Z-11.0000 F1800.0
G0 X0.0000 Y2.4000 Z2.0000
G0 X0.0000 Y0.4000 Z2.0000
G0 X0.0000 Y0.4000 Z-11.0000
G1 X-4.1721 Y0.4000 Z-11.0000 F1800.0
G1 X-4.5000 Y0.0721 Z-11.0000 F1800.0
G1 X-4.5000 Y-0.4000 Z-11.0000 F1800.0
G1 X4.5000 Y-0.4000 Z-11.0000 F1800.0
G1 X4.5000 Y0.0721 Z-11.0000 F1800.0
G1 X4.1721 Y0.4000 Z-11.0000 F1800.0
G1 X0.0000 Y0.4000 Z-11.0000 F1800.0
G1 X0.0000 Y0.4000 Z-13.0000 F1800.0
G1 X-4.1721 Y0.4000 Z-13.0000 F1800.0
G1 X-4.5000 Y0.0721 Z-13.0000 F1800.0
G1 X-4.5000 Y-0.4000 Z-13.0000 F1800.0
G1 X4.5000 Y-0.4000 Z-13.0000 F1800.0
G1 X4.5000 Y0.0721 Z-13.0000 F1800.0
G1 X4.1721 Y0.4000 Z-13.0000 F1800.0
G1 X0.0000 Y0.4000 Z-13.0000 F1800.0
G0 X0.0000 Y0.4000 Z2.0000
G0 X0.0000 Y2.4000 Z2.0000
G0 X0.0000 Y2.4000 Z-13.0000
G1 X-5.0005 Y2.4000 Z-13.0000 F1800.0
G1 X-6.5000 Y0.9005 Z-13.0000 F1800.0
G1 X-6.5000 Y-2.4000 Z-13.0000 F1800.0
G1 X6.5000 Y-2.4000 Z-13.0000 F1800.0
G1 X6.5000 Y0.9005 Z-13.0000 F1800.0
G1 X5.0005 Y2.4000 Z-13.0000 F1800.0
G1 X0.0000 Y2.4000 Z-13.0000 F1800.0
G0 X0.0000 Y2.4000 Z2.0000
G0 X0.0000 Y4.4000 Z2.0000
G0 X0.0000 Y4.4000 Z-13.0000
G1 X-5.8289 Y4.4000 Z-13.0000 F1800.0
G1 X-8.5000 Y1.7289 Z-13.0000 F1800.0
G1 X-8.5000 Y-4.4000 Z-13.0000 F1800.0
G1 X8.5000 Y-4.4000 Z-13.0000 F1800.0
G1 X8.5000 Y1.7289 Z-13.0000 F1800.0
G1 X5.8289 Y4.4000 Z-13.0000 F1800.0
G1 X0.0000 Y4.4000 Z-13.0000 F1800.0
G0 X0.0000 Y4.4000 Z2.0000
G0 X0.0000 Y6.4000 Z2.0000
G0 X0.0000 Y6.4000 Z-13.0000
G1 X-6.6574 Y6.4000 Z-13.0000 F1800.0
G1 X-10.5000 Y2.5574 Z-13.0000 F1800.0
G1 X-10.5000 Y-5.3018 Z-13.0000 F1800.0
G3 X-9.4018 Y-6.4000 Z-13.0000 I1.0223 J-0.0759 F1800.0
G1 X9.4018 Y-6.4000 Z-13.0000 F1800.0
G3 X10.5000 Y-5.3018 Z-13.0000 I0.0759 J1.0223 F1800.0
G1 X10.5000 Y2.5574 Z-13.0000 F1800.0
G1 X6.6574 Y6.4000 Z-13.0000 F1800.0
G1 X0.0000 Y6.4000 Z-13.0000 F1800.0
G0 X0.0000 Y6.4000 Z2.0000
G0 X0.0000 Y8.4000 Z2.0000
G0 X0.0000 Y8.4000 Z-13.0000
G1 X-7.4858 Y8.4000 Z-13.0000 F1800.0
G1 X-12.5000 Y3.3858 Z-13.0000 F1800.0
G1 X-12.5000 Y-5.3673 Z-13.0000 F1800.0
G3 X-9.4673 Y-8.4000 Z-13.0000 I3.0055 J-0.0273 F1800.0
G1 X9.4673 Y-8.4000 Z-13.0000 F1800.0
G3 X12.5000 Y-5.3673 Z-13.0000 I0.0273 J3.0055 F1800.0
G1 X12.5000 Y3.3858 Z-13.0000 F1800.0
G1 X7.4858 Y8.4000 Z-13.0000 F1800.0
G1 X0.0000 Y8.4000 Z-13.0000 F1800.0
G1 X0.0000 Y8.4000 Z-15.0000 F1800.0
G1 X-7.4858 Y8.4000 Z-15.0000 F1800.0
G1 X-12.5000 Y3.3858 Z-15.0000 F1800.0
G1 X-12.5000 Y-5.3673 Z-15.0000 F1800.0
G3 X-9.4673 Y-8.4000 Z-15.0000 I3.0055 J-0.0273 F1800.0
G1 X9.4673 Y-8.4000 Z-15.0000 F1800.0
G3 X12.5000 Y-5.3673 Z-15.0000 I0.0273 J3.0055 F1800.0
G1 X12.5000 Y3.3858 Z-15.0000 F1800.0
G1 X7.4858 Y8.4000 Z-15.0000 F1800.0
G1 X0.0000 Y8.4000 Z-15.0000 F1800.0
G0 X0.0000 Y8.4000 Z2.0000
G0 X0.0000 Y6.4000 Z2.0000
G0 X0.0000 Y6.4000 Z-15.0000
G1 X-6.6574 Y6.4000 Z-15.0000 F1800.0
G1 X-10.5000 Y2.5574 Z-15.0000 F1800.0
G1 X-10.5000 Y-5.3018 Z-15.0000 F1800.0
G3 X-9.4018 Y-6.4000 Z-15.0000 I1.0223 J-0.0759 F1800.0
G1 X9.4018 Y-6.4000 Z-15.0000 F1800.0
G3 X10.5000 Y-5.3018 Z-15.0000 I0.0759 J1.0223 F1800.0
G1 X10.5000 Y2.5574 Z-15.0000 F1800.0
G1 X6.6574 Y6.4000 Z-15.0000 F1800.0
G1 X0.0000 Y6.4000 Z-15.0000 F1800.0
G0 X0.0000 Y6.4000 Z2.0000
G0 X0.0000 Y4.4000 Z2.0000
G0 X0.0000 Y4.4000 Z-15.0000
G1 X-5.8289 Y4.4000 Z-15.0000 F1800.0
G1 X-8.5000 Y1.7289 Z-15.0000 F1800.0
G1 X-8.5000 Y-4.4000 Z-15.0000 F1800.0
G1 X8.5000 Y-4.4000 Z-15.0000 F1800.0
G1 X8.5000 Y1.7289 Z-15.0000 F1800.0
G1 X5.8289 Y4.4000 Z-15.0000 F1800.0
G1 X0.0000 Y4.4000 Z-15.0000 F1800.0
G0 X0.0000 Y4.4000 Z2.0000
G0 X0.0000 Y2.4000 Z2.0000
G0 X0.0000 Y2.4000 Z-15.0000
G1 X-5.0005 Y2.4000 Z-15.0000 F1800.0
G1 X-6.5000 Y0.9005 Z-15.0000 F1800.0
G1 X-6.5000 Y-2.4000 Z-15.0000 F1800.0
G1 X6.5000 Y-2.4000 Z-15.0000 F1800.0
G1 X6.5000 Y0.9005 Z-15.0000 F1800.0
G1 X5.0005 Y2.4000 Z-15.0000 F1800.0
G1 X0.0000 Y2.4000 Z-15.0000 F1800.0
G0 X0.0000 Y2.4000 Z2.0000
G0 X0.0000 Y0.4000 Z2.0000
G0 X0.0000 Y0.4000 Z-15.0000
G1 X-4.1721 Y0.4000 Z-15.0000 F1800.0
G1 X-4.5000 Y0.0721 Z-15.0000 F1800.0
G1 X-4.5000 Y-0.4000 Z-15.0000 F1800.0
G1 X4.5000 Y-0.4000 Z-15.0000 F1800.0
G1 X4.5000 Y0.0721 Z-15.0000 F1800.0
G1 X4.1721 Y0.4000 Z-15.0000 F1800.0
G1 X0.0000 Y0.4000 Z-15.0000 F1800.0
G0 Z2.0000
;end operation: body hole
;begin postamble
M5 M25
G49 H0
G90 G80 G40 G49
M99
