
;Exported by FreeCAD
;Post Processor: centroid_post
;CAM file: /home/androiders/pedalboard cad/ac connector.fcstd
;Output Time: 2019-05-01 18:39:27.670082
G90 G80 G40 G49
;T1=Default_Tool001
;begin preamble
G53 G00 G17
G21
;begin operation
;Default Tool001
M3 S12000
;end operation: Default Tool001
;begin operation
;body hole
G0 Z5.0000
G0
G0 Z0.0000
G1 X-0.0000 Y-7.2000 Z-2.0000 F1800.0
G1 X-9.4280 Y-7.2000 Z-2.0000 F1800.0
G1 X-4.5000 Y-7.2000 Z-2.0000 F1800.0
G1 X-4.5000 Y-9.2000 Z-2.0000 F1800.0
G1 X-9.4935 Y-9.2000 Z-2.0000 F1800.0
G2 X-13.3000 Y-5.3935 Z-2.0000 I-0.0055 J3.8010 F1800.0
G1 X-13.3000 Y3.5831 Z-2.0000 F1800.0
G2 X-13.2052 Y3.8120 Z-2.0000 I0.3122 J0.0048 F1800.0
G1 X-7.9120 Y9.1052 Z-2.0000 F1800.0
G2 X-7.6831 Y9.2000 Z-2.0000 I0.2241 J-0.2174 F1800.0
G1 X7.6831 Y9.2000 Z-2.0000 F1800.0
G2 X7.9120 Y9.1052 Z-2.0000 I0.0048 J-0.3122 F1800.0
G1 X13.2052 Y3.8120 Z-2.0000 F1800.0
G2 X13.3000 Y3.5831 Z-2.0000 I-0.2174 J-0.2241 F1800.0
G1 X13.3000 Y-5.3935 Z-2.0000 F1800.0
G2 X9.4935 Y-9.2000 Z-2.0000 I-3.8010 J-0.0055 F1800.0
G1 X-4.5000 Y-9.2000 Z-2.0000 F1800.0
G1 X-4.5000 Y-7.2000 Z-2.0000 F1800.0
G1 X9.4280 Y-7.2000 Z-2.0000 F1800.0
G3 X11.3000 Y-5.3280 Z-2.0000 I0.0584 J1.8137 F1800.0
G1 X11.3000 Y2.8887 Z-2.0000 F1800.0
G1 X6.9887 Y7.2000 Z-2.0000 F1800.0
G1 X-6.9887 Y7.2000 Z-2.0000 F1800.0
G1 X-11.3000 Y2.8887 Z-2.0000 F1800.0
G1 X-11.3000 Y-5.3280 Z-2.0000 F1800.0
G3 X-9.4280 Y-7.2000 Z-2.0000 I1.8137 J-0.0584 F1800.0
G2 X-11.3000 Y-5.3280 Z-2.0000 I-0.0584 J1.8137 F1800.0
G1 X-11.3000 Y2.8887 Z-2.0000 F1800.0
G1 X-6.9887 Y7.2000 Z-2.0000 F1800.0
G1 X6.9887 Y7.2000 Z-2.0000 F1800.0
G1 X11.3000 Y2.8887 Z-2.0000 F1800.0
G1 X11.3000 Y-5.3280 Z-2.0000 F1800.0
G2 X9.4280 Y-7.2000 Z-2.0000 I-1.8137 J-0.0584 F1800.0
G1 X-0.0000 Y-7.2000 Z-2.0000 F1800.0
G1 X-0.0000 Y-7.2000 Z-4.0000 F1800.0
G1 X-9.4280 Y-7.2000 Z-4.0000 F1800.0
G1 X-4.5000 Y-7.2000 Z-4.0000 F1800.0
G1 X-4.5000 Y-9.2000 Z-4.0000 F1800.0
G1 X-9.4935 Y-9.2000 Z-4.0000 F1800.0
G2 X-13.3000 Y-5.3935 Z-4.0000 I-0.0055 J3.8010 F1800.0
G1 X-13.3000 Y3.5831 Z-4.0000 F1800.0
G2 X-13.2052 Y3.8120 Z-4.0000 I0.3122 J0.0048 F1800.0
G1 X-7.9120 Y9.1052 Z-4.0000 F1800.0
G2 X-7.6831 Y9.2000 Z-4.0000 I0.2241 J-0.2174 F1800.0
G1 X7.6831 Y9.2000 Z-4.0000 F1800.0
G2 X7.9120 Y9.1052 Z-4.0000 I0.0048 J-0.3122 F1800.0
G1 X13.2052 Y3.8120 Z-4.0000 F1800.0
G2 X13.3000 Y3.5831 Z-4.0000 I-0.2174 J-0.2241 F1800.0
G1 X13.3000 Y-5.3935 Z-4.0000 F1800.0
G2 X9.4935 Y-9.2000 Z-4.0000 I-3.8010 J-0.0055 F1800.0
G1 X-4.5000 Y-9.2000 Z-4.0000 F1800.0
G1 X-4.5000 Y-7.2000 Z-4.0000 F1800.0
G1 X9.4280 Y-7.2000 Z-4.0000 F1800.0
G3 X11.3000 Y-5.3280 Z-4.0000 I0.0584 J1.8137 F1800.0
G1 X11.3000 Y2.8887 Z-4.0000 F1800.0
G1 X6.9887 Y7.2000 Z-4.0000 F1800.0
G1 X-6.9887 Y7.2000 Z-4.0000 F1800.0
G1 X-11.3000 Y2.8887 Z-4.0000 F1800.0
G1 X-11.3000 Y-5.3280 Z-4.0000 F1800.0
G3 X-9.4280 Y-7.2000 Z-4.0000 I1.8137 J-0.0584 F1800.0
G2 X-11.3000 Y-5.3280 Z-4.0000 I-0.0584 J1.8137 F1800.0
G1 X-11.3000 Y2.8887 Z-4.0000 F1800.0
G1 X-6.9887 Y7.2000 Z-4.0000 F1800.0
G1 X6.9887 Y7.2000 Z-4.0000 F1800.0
G1 X11.3000 Y2.8887 Z-4.0000 F1800.0
G1 X11.3000 Y-5.3280 Z-4.0000 F1800.0
G2 X9.4280 Y-7.2000 Z-4.0000 I-1.8137 J-0.0584 F1800.0
G1 X-0.0000 Y-7.2000 Z-4.0000 F1800.0
G1 X-0.0000 Y-7.2000 Z-6.0000 F1800.0
G1 X-9.4280 Y-7.2000 Z-6.0000 F1800.0
G1 X-4.5000 Y-7.2000 Z-6.0000 F1800.0
G1 X-4.5000 Y-9.2000 Z-6.0000 F1800.0
G1 X-9.4935 Y-9.2000 Z-6.0000 F1800.0
G2 X-13.3000 Y-5.3935 Z-6.0000 I-0.0055 J3.8010 F1800.0
G1 X-13.3000 Y3.5831 Z-6.0000 F1800.0
G2 X-13.2052 Y3.8120 Z-6.0000 I0.3122 J0.0048 F1800.0
G1 X-7.9120 Y9.1052 Z-6.0000 F1800.0
G2 X-7.6831 Y9.2000 Z-6.0000 I0.2241 J-0.2174 F1800.0
G1 X7.6831 Y9.2000 Z-6.0000 F1800.0
G2 X7.9120 Y9.1052 Z-6.0000 I0.0048 J-0.3122 F1800.0
G1 X13.2052 Y3.8120 Z-6.0000 F1800.0
G2 X13.3000 Y3.5831 Z-6.0000 I-0.2174 J-0.2241 F1800.0
G1 X13.3000 Y-5.3935 Z-6.0000 F1800.0
G2 X9.4935 Y-9.2000 Z-6.0000 I-3.8010 J-0.0055 F1800.0
G1 X-4.5000 Y-9.2000 Z-6.0000 F1800.0
G1 X-4.5000 Y-7.2000 Z-6.0000 F1800.0
G1 X9.4280 Y-7.2000 Z-6.0000 F1800.0
G3 X11.3000 Y-5.3280 Z-6.0000 I0.0584 J1.8137 F1800.0
G1 X11.3000 Y2.8887 Z-6.0000 F1800.0
G1 X6.9887 Y7.2000 Z-6.0000 F1800.0
G1 X-6.9887 Y7.2000 Z-6.0000 F1800.0
G1 X-11.3000 Y2.8887 Z-6.0000 F1800.0
G1 X-11.3000 Y-5.3280 Z-6.0000 F1800.0
G3 X-9.4280 Y-7.2000 Z-6.0000 I1.8137 J-0.0584 F1800.0
G2 X-11.3000 Y-5.3280 Z-6.0000 I-0.0584 J1.8137 F1800.0
G1 X-11.3000 Y2.8887 Z-6.0000 F1800.0
G1 X-6.9887 Y7.2000 Z-6.0000 F1800.0
G1 X6.9887 Y7.2000 Z-6.0000 F1800.0
G1 X11.3000 Y2.8887 Z-6.0000 F1800.0
G1 X11.3000 Y-5.3280 Z-6.0000 F1800.0
G2 X9.4280 Y-7.2000 Z-6.0000 I-1.8137 J-0.0584 F1800.0
G1 X-0.0000 Y-7.2000 Z-6.0000 F1800.0
G1 X-0.0000 Y-7.2000 Z-8.0000 F1800.0
G1 X-9.4280 Y-7.2000 Z-8.0000 F1800.0
G1 X-4.5000 Y-7.2000 Z-8.0000 F1800.0
G1 X-4.5000 Y-9.2000 Z-8.0000 F1800.0
G1 X-9.4935 Y-9.2000 Z-8.0000 F1800.0
G2 X-13.3000 Y-5.3935 Z-8.0000 I-0.0055 J3.8010 F1800.0
G1 X-13.3000 Y3.5831 Z-8.0000 F1800.0
G2 X-13.2052 Y3.8120 Z-8.0000 I0.3122 J0.0048 F1800.0
G1 X-7.9120 Y9.1052 Z-8.0000 F1800.0
G2 X-7.6831 Y9.2000 Z-8.0000 I0.2241 J-0.2174 F1800.0
G1 X7.6831 Y9.2000 Z-8.0000 F1800.0
G2 X7.9120 Y9.1052 Z-8.0000 I0.0048 J-0.3122 F1800.0
G1 X13.2052 Y3.8120 Z-8.0000 F1800.0
G2 X13.3000 Y3.5831 Z-8.0000 I-0.2174 J-0.2241 F1800.0
G1 X13.3000 Y-5.3935 Z-8.0000 F1800.0
G2 X9.4935 Y-9.2000 Z-8.0000 I-3.8010 J-0.0055 F1800.0
G1 X-4.5000 Y-9.2000 Z-8.0000 F1800.0
G1 X-4.5000 Y-7.2000 Z-8.0000 F1800.0
G1 X9.4280 Y-7.2000 Z-8.0000 F1800.0
G3 X11.3000 Y-5.3280 Z-8.0000 I0.0584 J1.8137 F1800.0
G1 X11.3000 Y2.8887 Z-8.0000 F1800.0
G1 X6.9887 Y7.2000 Z-8.0000 F1800.0
G1 X-6.9887 Y7.2000 Z-8.0000 F1800.0
G1 X-11.3000 Y2.8887 Z-8.0000 F1800.0
G1 X-11.3000 Y-5.3280 Z-8.0000 F1800.0
G3 X-9.4280 Y-7.2000 Z-8.0000 I1.8137 J-0.0584 F1800.0
G2 X-11.3000 Y-5.3280 Z-8.0000 I-0.0584 J1.8137 F1800.0
G1 X-11.3000 Y2.8887 Z-8.0000 F1800.0
G1 X-6.9887 Y7.2000 Z-8.0000 F1800.0
G1 X6.9887 Y7.2000 Z-8.0000 F1800.0
G1 X11.3000 Y2.8887 Z-8.0000 F1800.0
G1 X11.3000 Y-5.3280 Z-8.0000 F1800.0
G2 X9.4280 Y-7.2000 Z-8.0000 I-1.8137 J-0.0584 F1800.0
G1 X-0.0000 Y-7.2000 Z-8.0000 F1800.0
G1 X-0.0000 Y-7.2000 Z-10.0000 F1800.0
G1 X-9.4280 Y-7.2000 Z-10.0000 F1800.0
G1 X-4.5000 Y-7.2000 Z-10.0000 F1800.0
G1 X-4.5000 Y-9.2000 Z-10.0000 F1800.0
G1 X-9.4935 Y-9.2000 Z-10.0000 F1800.0
G2 X-13.3000 Y-5.3935 Z-10.0000 I-0.0055 J3.8010 F1800.0
G1 X-13.3000 Y3.5831 Z-10.0000 F1800.0
G2 X-13.2052 Y3.8120 Z-10.0000 I0.3122 J0.0048 F1800.0
G1 X-7.9120 Y9.1052 Z-10.0000 F1800.0
G2 X-7.6831 Y9.2000 Z-10.0000 I0.2241 J-0.2174 F1800.0
G1 X7.6831 Y9.2000 Z-10.0000 F1800.0
G2 X7.9120 Y9.1052 Z-10.0000 I0.0048 J-0.3122 F1800.0
G1 X13.2052 Y3.8120 Z-10.0000 F1800.0
G2 X13.3000 Y3.5831 Z-10.0000 I-0.2174 J-0.2241 F1800.0
G1 X13.3000 Y-5.3935 Z-10.0000 F1800.0
G2 X9.4935 Y-9.2000 Z-10.0000 I-3.8010 J-0.0055 F1800.0
G1 X-4.5000 Y-9.2000 Z-10.0000 F1800.0
G1 X-4.5000 Y-7.2000 Z-10.0000 F1800.0
G1 X9.4280 Y-7.2000 Z-10.0000 F1800.0
G3 X11.3000 Y-5.3280 Z-10.0000 I0.0584 J1.8137 F1800.0
G1 X11.3000 Y2.8887 Z-10.0000 F1800.0
G1 X6.9887 Y7.2000 Z-10.0000 F1800.0
G1 X-6.9887 Y7.2000 Z-10.0000 F1800.0
G1 X-11.3000 Y2.8887 Z-10.0000 F1800.0
G1 X-11.3000 Y-5.3280 Z-10.0000 F1800.0
G3 X-9.4280 Y-7.2000 Z-10.0000 I1.8137 J-0.0584 F1800.0
G2 X-11.3000 Y-5.3280 Z-10.0000 I-0.0584 J1.8137 F1800.0
G1 X-11.3000 Y2.8887 Z-10.0000 F1800.0
G1 X-6.9887 Y7.2000 Z-10.0000 F1800.0
G1 X6.9887 Y7.2000 Z-10.0000 F1800.0
G1 X11.3000 Y2.8887 Z-10.0000 F1800.0
G1 X11.3000 Y-5.3280 Z-10.0000 F1800.0
G2 X9.4280 Y-7.2000 Z-10.0000 I-1.8137 J-0.0584 F1800.0
G1 X-0.0000 Y-7.2000 Z-10.0000 F1800.0
G1 X-0.0000 Y-7.2000 Z-12.0000 F1800.0
G1 X-9.4280 Y-7.2000 Z-12.0000 F1800.0
G1 X-4.5000 Y-7.2000 Z-12.0000 F1800.0
G1 X-4.5000 Y-9.2000 Z-12.0000 F1800.0
G1 X-9.4935 Y-9.2000 Z-12.0000 F1800.0
G2 X-13.3000 Y-5.3935 Z-12.0000 I-0.0055 J3.8010 F1800.0
G1 X-13.3000 Y3.5831 Z-12.0000 F1800.0
G2 X-13.2052 Y3.8120 Z-12.0000 I0.3122 J0.0048 F1800.0
G1 X-7.9120 Y9.1052 Z-12.0000 F1800.0
G2 X-7.6831 Y9.2000 Z-12.0000 I0.2241 J-0.2174 F1800.0
G1 X7.6831 Y9.2000 Z-12.0000 F1800.0
G2 X7.9120 Y9.1052 Z-12.0000 I0.0048 J-0.3122 F1800.0
G1 X13.2052 Y3.8120 Z-12.0000 F1800.0
G2 X13.3000 Y3.5831 Z-12.0000 I-0.2174 J-0.2241 F1800.0
G1 X13.3000 Y-5.3935 Z-12.0000 F1800.0
G2 X9.4935 Y-9.2000 Z-12.0000 I-3.8010 J-0.0055 F1800.0
G1 X-4.5000 Y-9.2000 Z-12.0000 F1800.0
G1 X-4.5000 Y-7.2000 Z-12.0000 F1800.0
G1 X9.4280 Y-7.2000 Z-12.0000 F1800.0
G3 X11.3000 Y-5.3280 Z-12.0000 I0.0584 J1.8137 F1800.0
G1 X11.3000 Y2.8887 Z-12.0000 F1800.0
G1 X6.9887 Y7.2000 Z-12.0000 F1800.0
G1 X-6.9887 Y7.2000 Z-12.0000 F1800.0
G1 X-11.3000 Y2.8887 Z-12.0000 F1800.0
G1 X-11.3000 Y-5.3280 Z-12.0000 F1800.0
G3 X-9.4280 Y-7.2000 Z-12.0000 I1.8137 J-0.0584 F1800.0
G2 X-11.3000 Y-5.3280 Z-12.0000 I-0.0584 J1.8137 F1800.0
G1 X-11.3000 Y2.8887 Z-12.0000 F1800.0
G1 X-6.9887 Y7.2000 Z-12.0000 F1800.0
G1 X6.9887 Y7.2000 Z-12.0000 F1800.0
G1 X11.3000 Y2.8887 Z-12.0000 F1800.0
G1 X11.3000 Y-5.3280 Z-12.0000 F1800.0
G2 X9.4280 Y-7.2000 Z-12.0000 I-1.8137 J-0.0584 F1800.0
G1 X-0.0000 Y-7.2000 Z-12.0000 F1800.0
G0 Z5.0000
;end operation: body hole
;begin postamble
M5 M25
G49 H0
G90 G80 G40 G49
M99
