
;Exported by FreeCAD
;Post Processor: centroid_post
;CAM file: 
;Output Time: 2019-05-01 17:50:16.051835
G90 G80 G40 G49
;T1=Default_Tool001
;begin preamble
G53 G00 G17
G21
;begin operation
;Default Tool001
M3 S12000
;end operation: Default Tool001
;begin operation
;body hole
G0 Z5.0000
G0
G0 Z0.0000
G1 X0.0000 Y1.1500 Z-2.0000 F1800.0
G1 X-4.4827 Y1.1500 Z-2.0000 F1800.0
G1 X-5.2500 Y0.3827 Z-2.0000 F1800.0
G1 X-5.2500 Y-1.1500 Z-2.0000 F1800.0
G1 X5.2500 Y-1.1500 Z-2.0000 F1800.0
G1 X5.2500 Y0.3827 Z-2.0000 F1800.0
G1 X4.4827 Y1.1500 Z-2.0000 F1800.0
G1 X0.0000 Y1.1500 Z-2.0000 F1800.0
G0 X0.0000 Y1.1500 Z5.0000
G0 X0.0000 Y2.6500 Z5.0000
G0 X0.0000 Y2.6500 Z1.0000
G1 X0.0000 Y2.6500 Z-2.0000 F1800.0
G1 X-5.1041 Y2.6500 Z-2.0000 F1800.0
G1 X-6.7500 Y1.0041 Z-2.0000 F1800.0
G1 X-6.7500 Y-2.6500 Z-2.0000 F1800.0
G1 X6.7500 Y-2.6500 Z-2.0000 F1800.0
G1 X6.7500 Y1.0041 Z-2.0000 F1800.0
G1 X5.1041 Y2.6500 Z-2.0000 F1800.0
G1 X0.0000 Y2.6500 Z-2.0000 F1800.0
G0 X0.0000 Y2.6500 Z5.0000
G0 X0.0000 Y4.1500 Z5.0000
G0 X0.0000 Y4.1500 Z1.0000
G1 X0.0000 Y4.1500 Z-2.0000 F1800.0
G1 X-5.7254 Y4.1500 Z-2.0000 F1800.0
G1 X-8.2500 Y1.6254 Z-2.0000 F1800.0
G1 X-8.2500 Y-4.1500 Z-2.0000 F1800.0
G1 X8.2500 Y-4.1500 Z-2.0000 F1800.0
G1 X8.2500 Y1.6254 Z-2.0000 F1800.0
G1 X5.7254 Y4.1500 Z-2.0000 F1800.0
G1 X0.0000 Y4.1500 Z-2.0000 F1800.0
G0 X0.0000 Y4.1500 Z5.0000
G0 X0.0000 Y5.6500 Z5.0000
G0 X0.0000 Y5.6500 Z1.0000
G1 X0.0000 Y5.6500 Z-2.0000 F1800.0
G1 X-6.3467 Y5.6500 Z-2.0000 F1800.0
G1 X-9.7500 Y2.2467 Z-2.0000 F1800.0
G1 X-9.7500 Y-5.2772 Z-2.0000 F1800.0
G3 X-9.3772 Y-5.6500 Z-2.0000 I0.2943 J-0.0785 F1800.0
G1 X9.3772 Y-5.6500 Z-2.0000 F1800.0
G3 X9.7500 Y-5.2772 Z-2.0000 I0.0785 J0.2943 F1800.0
G1 X9.7500 Y2.2467 Z-2.0000 F1800.0
G1 X6.3467 Y5.6500 Z-2.0000 F1800.0
G1 X0.0000 Y5.6500 Z-2.0000 F1800.0
G0 X0.0000 Y5.6500 Z5.0000
G0 X0.0000 Y7.1500 Z5.0000
G0 X0.0000 Y7.1500 Z1.0000
G1 X0.0000 Y7.1500 Z-2.0000 F1800.0
G1 X-6.9680 Y7.1500 Z-2.0000 F1800.0
G1 X-11.2500 Y2.8680 Z-2.0000 F1800.0
G1 X-11.2500 Y-5.3263 Z-2.0000 F1800.0
G3 X-9.4263 Y-7.1500 Z-2.0000 I1.7641 J-0.0596 F1800.0
G1 X9.4263 Y-7.1500 Z-2.0000 F1800.0
G3 X11.2500 Y-5.3263 Z-2.0000 I0.0596 J1.7641 F1800.0
G1 X11.2500 Y2.8680 Z-2.0000 F1800.0
G1 X6.9680 Y7.1500 Z-2.0000 F1800.0
G1 X0.0000 Y7.1500 Z-2.0000 F1800.0
G0 X0.0000 Y7.1500 Z5.0000
G0 X0.0000 Y8.6500 Z5.0000
G0 X0.0000 Y8.6500 Z1.0000
G1 X0.0000 Y8.6500 Z-2.0000 F1800.0
G1 X-7.5893 Y8.6500 Z-2.0000 F1800.0
G1 X-12.7500 Y3.4893 Z-2.0000 F1800.0
G1 X-12.7500 Y-5.3754 Z-2.0000 F1800.0
G3 X-9.4754 Y-8.6500 Z-2.0000 I3.2540 J-0.0205 F1800.0
G1 X9.4754 Y-8.6500 Z-2.0000 F1800.0
G3 X12.7500 Y-5.3754 Z-2.0000 I0.0205 J3.2540 F1800.0
G1 X12.7500 Y3.4893 Z-2.0000 F1800.0
G1 X7.5893 Y8.6500 Z-2.0000 F1800.0
G1 X0.0000 Y8.6500 Z-2.0000 F1800.0
G1 X0.0000 Y8.6500 Z-4.0000 F1800.0
G1 X-7.5893 Y8.6500 Z-4.0000 F1800.0
G1 X-12.7500 Y3.4893 Z-4.0000 F1800.0
G1 X-12.7500 Y-5.3754 Z-4.0000 F1800.0
G3 X-9.4754 Y-8.6500 Z-4.0000 I3.2540 J-0.0205 F1800.0
G1 X9.4754 Y-8.6500 Z-4.0000 F1800.0
G3 X12.7500 Y-5.3754 Z-4.0000 I0.0205 J3.2540 F1800.0
G1 X12.7500 Y3.4893 Z-4.0000 F1800.0
G1 X7.5893 Y8.6500 Z-4.0000 F1800.0
G1 X0.0000 Y8.6500 Z-4.0000 F1800.0
G0 X0.0000 Y8.6500 Z5.0000
G0 X0.0000 Y7.1500 Z5.0000
G0 X0.0000 Y7.1500 Z-1.0000
G1 X0.0000 Y7.1500 Z-4.0000 F1800.0
G1 X-6.9680 Y7.1500 Z-4.0000 F1800.0
G1 X-11.2500 Y2.8680 Z-4.0000 F1800.0
G1 X-11.2500 Y-5.3263 Z-4.0000 F1800.0
G3 X-9.4263 Y-7.1500 Z-4.0000 I1.7641 J-0.0596 F1800.0
G1 X9.4263 Y-7.1500 Z-4.0000 F1800.0
G3 X11.2500 Y-5.3263 Z-4.0000 I0.0596 J1.7641 F1800.0
G1 X11.2500 Y2.8680 Z-4.0000 F1800.0
G1 X6.9680 Y7.1500 Z-4.0000 F1800.0
G1 X0.0000 Y7.1500 Z-4.0000 F1800.0
G0 X0.0000 Y7.1500 Z5.0000
G0 X0.0000 Y5.6500 Z5.0000
G0 X0.0000 Y5.6500 Z-1.0000
G1 X0.0000 Y5.6500 Z-4.0000 F1800.0
G1 X-6.3467 Y5.6500 Z-4.0000 F1800.0
G1 X-9.7500 Y2.2467 Z-4.0000 F1800.0
G1 X-9.7500 Y-5.2772 Z-4.0000 F1800.0
G3 X-9.3772 Y-5.6500 Z-4.0000 I0.2943 J-0.0785 F1800.0
G1 X9.3772 Y-5.6500 Z-4.0000 F1800.0
G3 X9.7500 Y-5.2772 Z-4.0000 I0.0785 J0.2943 F1800.0
G1 X9.7500 Y2.2467 Z-4.0000 F1800.0
G1 X6.3467 Y5.6500 Z-4.0000 F1800.0
G1 X0.0000 Y5.6500 Z-4.0000 F1800.0
G0 X0.0000 Y5.6500 Z5.0000
G0 X0.0000 Y4.1500 Z5.0000
G0 X0.0000 Y4.1500 Z-1.0000
G1 X0.0000 Y4.1500 Z-4.0000 F1800.0
G1 X-5.7254 Y4.1500 Z-4.0000 F1800.0
G1 X-8.2500 Y1.6254 Z-4.0000 F1800.0
G1 X-8.2500 Y-4.1500 Z-4.0000 F1800.0
G1 X8.2500 Y-4.1500 Z-4.0000 F1800.0
G1 X8.2500 Y1.6254 Z-4.0000 F1800.0
G1 X5.7254 Y4.1500 Z-4.0000 F1800.0
G1 X0.0000 Y4.1500 Z-4.0000 F1800.0
G0 X0.0000 Y4.1500 Z5.0000
G0 X0.0000 Y2.6500 Z5.0000
G0 X0.0000 Y2.6500 Z-1.0000
G1 X0.0000 Y2.6500 Z-4.0000 F1800.0
G1 X-5.1041 Y2.6500 Z-4.0000 F1800.0
G1 X-6.7500 Y1.0041 Z-4.0000 F1800.0
G1 X-6.7500 Y-2.6500 Z-4.0000 F1800.0
G1 X6.7500 Y-2.6500 Z-4.0000 F1800.0
G1 X6.7500 Y1.0041 Z-4.0000 F1800.0
G1 X5.1041 Y2.6500 Z-4.0000 F1800.0
G1 X0.0000 Y2.6500 Z-4.0000 F1800.0
G0 X0.0000 Y2.6500 Z5.0000
G0 X0.0000 Y1.1500 Z5.0000
G0 X0.0000 Y1.1500 Z-1.0000
G1 X0.0000 Y1.1500 Z-4.0000 F1800.0
G1 X-4.4827 Y1.1500 Z-4.0000 F1800.0
G1 X-5.2500 Y0.3827 Z-4.0000 F1800.0
G1 X-5.2500 Y-1.1500 Z-4.0000 F1800.0
G1 X5.2500 Y-1.1500 Z-4.0000 F1800.0
G1 X5.2500 Y0.3827 Z-4.0000 F1800.0
G1 X4.4827 Y1.1500 Z-4.0000 F1800.0
G1 X0.0000 Y1.1500 Z-4.0000 F1800.0
G1 X0.0000 Y1.1500 Z-6.0000 F1800.0
G1 X-4.4827 Y1.1500 Z-6.0000 F1800.0
G1 X-5.2500 Y0.3827 Z-6.0000 F1800.0
G1 X-5.2500 Y-1.1500 Z-6.0000 F1800.0
G1 X5.2500 Y-1.1500 Z-6.0000 F1800.0
G1 X5.2500 Y0.3827 Z-6.0000 F1800.0
G1 X4.4827 Y1.1500 Z-6.0000 F1800.0
G1 X0.0000 Y1.1500 Z-6.0000 F1800.0
G0 X0.0000 Y1.1500 Z5.0000
G0 X0.0000 Y2.6500 Z5.0000
G0 X0.0000 Y2.6500 Z-3.0000
G1 X0.0000 Y2.6500 Z-6.0000 F1800.0
G1 X-5.1041 Y2.6500 Z-6.0000 F1800.0
G1 X-6.7500 Y1.0041 Z-6.0000 F1800.0
G1 X-6.7500 Y-2.6500 Z-6.0000 F1800.0
G1 X6.7500 Y-2.6500 Z-6.0000 F1800.0
G1 X6.7500 Y1.0041 Z-6.0000 F1800.0
G1 X5.1041 Y2.6500 Z-6.0000 F1800.0
G1 X0.0000 Y2.6500 Z-6.0000 F1800.0
G0 X0.0000 Y2.6500 Z5.0000
G0 X0.0000 Y4.1500 Z5.0000
G0 X0.0000 Y4.1500 Z-3.0000
G1 X0.0000 Y4.1500 Z-6.0000 F1800.0
G1 X-5.7254 Y4.1500 Z-6.0000 F1800.0
G1 X-8.2500 Y1.6254 Z-6.0000 F1800.0
G1 X-8.2500 Y-4.1500 Z-6.0000 F1800.0
G1 X8.2500 Y-4.1500 Z-6.0000 F1800.0
G1 X8.2500 Y1.6254 Z-6.0000 F1800.0
G1 X5.7254 Y4.1500 Z-6.0000 F1800.0
G1 X0.0000 Y4.1500 Z-6.0000 F1800.0
G0 X0.0000 Y4.1500 Z5.0000
G0 X0.0000 Y5.6500 Z5.0000
G0 X0.0000 Y5.6500 Z-3.0000
G1 X0.0000 Y5.6500 Z-6.0000 F1800.0
G1 X-6.3467 Y5.6500 Z-6.0000 F1800.0
G1 X-9.7500 Y2.2467 Z-6.0000 F1800.0
G1 X-9.7500 Y-5.2772 Z-6.0000 F1800.0
G3 X-9.3772 Y-5.6500 Z-6.0000 I0.2943 J-0.0785 F1800.0
G1 X9.3772 Y-5.6500 Z-6.0000 F1800.0
G3 X9.7500 Y-5.2772 Z-6.0000 I0.0785 J0.2943 F1800.0
G1 X9.7500 Y2.2467 Z-6.0000 F1800.0
G1 X6.3467 Y5.6500 Z-6.0000 F1800.0
G1 X0.0000 Y5.6500 Z-6.0000 F1800.0
G0 X0.0000 Y5.6500 Z5.0000
G0 X0.0000 Y7.1500 Z5.0000
G0 X0.0000 Y7.1500 Z-3.0000
G1 X0.0000 Y7.1500 Z-6.0000 F1800.0
G1 X-6.9680 Y7.1500 Z-6.0000 F1800.0
G1 X-11.2500 Y2.8680 Z-6.0000 F1800.0
G1 X-11.2500 Y-5.3263 Z-6.0000 F1800.0
G3 X-9.4263 Y-7.1500 Z-6.0000 I1.7641 J-0.0596 F1800.0
G1 X9.4263 Y-7.1500 Z-6.0000 F1800.0
G3 X11.2500 Y-5.3263 Z-6.0000 I0.0596 J1.7641 F1800.0
G1 X11.2500 Y2.8680 Z-6.0000 F1800.0
G1 X6.9680 Y7.1500 Z-6.0000 F1800.0
G1 X0.0000 Y7.1500 Z-6.0000 F1800.0
G0 X0.0000 Y7.1500 Z5.0000
G0 X0.0000 Y8.6500 Z5.0000
G0 X0.0000 Y8.6500 Z-3.0000
G1 X0.0000 Y8.6500 Z-6.0000 F1800.0
G1 X-7.5893 Y8.6500 Z-6.0000 F1800.0
G1 X-12.7500 Y3.4893 Z-6.0000 F1800.0
G1 X-12.7500 Y-5.3754 Z-6.0000 F1800.0
G3 X-9.4754 Y-8.6500 Z-6.0000 I3.2540 J-0.0205 F1800.0
G1 X9.4754 Y-8.6500 Z-6.0000 F1800.0
G3 X12.7500 Y-5.3754 Z-6.0000 I0.0205 J3.2540 F1800.0
G1 X12.7500 Y3.4893 Z-6.0000 F1800.0
G1 X7.5893 Y8.6500 Z-6.0000 F1800.0
G1 X0.0000 Y8.6500 Z-6.0000 F1800.0
G1 X0.0000 Y8.6500 Z-8.0000 F1800.0
G1 X-7.5893 Y8.6500 Z-8.0000 F1800.0
G1 X-12.7500 Y3.4893 Z-8.0000 F1800.0
G1 X-12.7500 Y-5.3754 Z-8.0000 F1800.0
G3 X-9.4754 Y-8.6500 Z-8.0000 I3.2540 J-0.0205 F1800.0
G1 X9.4754 Y-8.6500 Z-8.0000 F1800.0
G3 X12.7500 Y-5.3754 Z-8.0000 I0.0205 J3.2540 F1800.0
G1 X12.7500 Y3.4893 Z-8.0000 F1800.0
G1 X7.5893 Y8.6500 Z-8.0000 F1800.0
G1 X0.0000 Y8.6500 Z-8.0000 F1800.0
G0 X0.0000 Y8.6500 Z5.0000
G0 X0.0000 Y7.1500 Z5.0000
G0 X0.0000 Y7.1500 Z-5.0000
G1 X0.0000 Y7.1500 Z-8.0000 F1800.0
G1 X-6.9680 Y7.1500 Z-8.0000 F1800.0
G1 X-11.2500 Y2.8680 Z-8.0000 F1800.0
G1 X-11.2500 Y-5.3263 Z-8.0000 F1800.0
G3 X-9.4263 Y-7.1500 Z-8.0000 I1.7641 J-0.0596 F1800.0
G1 X9.4263 Y-7.1500 Z-8.0000 F1800.0
G3 X11.2500 Y-5.3263 Z-8.0000 I0.0596 J1.7641 F1800.0
G1 X11.2500 Y2.8680 Z-8.0000 F1800.0
G1 X6.9680 Y7.1500 Z-8.0000 F1800.0
G1 X0.0000 Y7.1500 Z-8.0000 F1800.0
G0 X0.0000 Y7.1500 Z5.0000
G0 X0.0000 Y5.6500 Z5.0000
G0 X0.0000 Y5.6500 Z-5.0000
G1 X0.0000 Y5.6500 Z-8.0000 F1800.0
G1 X-6.3467 Y5.6500 Z-8.0000 F1800.0
G1 X-9.7500 Y2.2467 Z-8.0000 F1800.0
G1 X-9.7500 Y-5.2772 Z-8.0000 F1800.0
G3 X-9.3772 Y-5.6500 Z-8.0000 I0.2943 J-0.0785 F1800.0
G1 X9.3772 Y-5.6500 Z-8.0000 F1800.0
G3 X9.7500 Y-5.2772 Z-8.0000 I0.0785 J0.2943 F1800.0
G1 X9.7500 Y2.2467 Z-8.0000 F1800.0
G1 X6.3467 Y5.6500 Z-8.0000 F1800.0
G1 X0.0000 Y5.6500 Z-8.0000 F1800.0
G0 X0.0000 Y5.6500 Z5.0000
G0 X0.0000 Y4.1500 Z5.0000
G0 X0.0000 Y4.1500 Z-5.0000
G1 X0.0000 Y4.1500 Z-8.0000 F1800.0
G1 X-5.7254 Y4.1500 Z-8.0000 F1800.0
G1 X-8.2500 Y1.6254 Z-8.0000 F1800.0
G1 X-8.2500 Y-4.1500 Z-8.0000 F1800.0
G1 X8.2500 Y-4.1500 Z-8.0000 F1800.0
G1 X8.2500 Y1.6254 Z-8.0000 F1800.0
G1 X5.7254 Y4.1500 Z-8.0000 F1800.0
G1 X0.0000 Y4.1500 Z-8.0000 F1800.0
G0 X0.0000 Y4.1500 Z5.0000
G0 X0.0000 Y2.6500 Z5.0000
G0 X0.0000 Y2.6500 Z-5.0000
G1 X0.0000 Y2.6500 Z-8.0000 F1800.0
G1 X-5.1041 Y2.6500 Z-8.0000 F1800.0
G1 X-6.7500 Y1.0041 Z-8.0000 F1800.0
G1 X-6.7500 Y-2.6500 Z-8.0000 F1800.0
G1 X6.7500 Y-2.6500 Z-8.0000 F1800.0
G1 X6.7500 Y1.0041 Z-8.0000 F1800.0
G1 X5.1041 Y2.6500 Z-8.0000 F1800.0
G1 X0.0000 Y2.6500 Z-8.0000 F1800.0
G0 X0.0000 Y2.6500 Z5.0000
G0 X0.0000 Y1.1500 Z5.0000
G0 X0.0000 Y1.1500 Z-5.0000
G1 X0.0000 Y1.1500 Z-8.0000 F1800.0
G1 X-4.4827 Y1.1500 Z-8.0000 F1800.0
G1 X-5.2500 Y0.3827 Z-8.0000 F1800.0
G1 X-5.2500 Y-1.1500 Z-8.0000 F1800.0
G1 X5.2500 Y-1.1500 Z-8.0000 F1800.0
G1 X5.2500 Y0.3827 Z-8.0000 F1800.0
G1 X4.4827 Y1.1500 Z-8.0000 F1800.0
G1 X0.0000 Y1.1500 Z-8.0000 F1800.0
G1 X0.0000 Y1.1500 Z-10.0000 F1800.0
G1 X-4.4827 Y1.1500 Z-10.0000 F1800.0
G1 X-5.2500 Y0.3827 Z-10.0000 F1800.0
G1 X-5.2500 Y-1.1500 Z-10.0000 F1800.0
G1 X5.2500 Y-1.1500 Z-10.0000 F1800.0
G1 X5.2500 Y0.3827 Z-10.0000 F1800.0
G1 X4.4827 Y1.1500 Z-10.0000 F1800.0
G1 X0.0000 Y1.1500 Z-10.0000 F1800.0
G0 X0.0000 Y1.1500 Z5.0000
G0 X0.0000 Y2.6500 Z5.0000
G0 X0.0000 Y2.6500 Z-7.0000
G1 X0.0000 Y2.6500 Z-10.0000 F1800.0
G1 X-5.1041 Y2.6500 Z-10.0000 F1800.0
G1 X-6.7500 Y1.0041 Z-10.0000 F1800.0
G1 X-6.7500 Y-2.6500 Z-10.0000 F1800.0
G1 X6.7500 Y-2.6500 Z-10.0000 F1800.0
G1 X6.7500 Y1.0041 Z-10.0000 F1800.0
G1 X5.1041 Y2.6500 Z-10.0000 F1800.0
G1 X0.0000 Y2.6500 Z-10.0000 F1800.0
G0 X0.0000 Y2.6500 Z5.0000
G0 X0.0000 Y4.1500 Z5.0000
G0 X0.0000 Y4.1500 Z-7.0000
G1 X0.0000 Y4.1500 Z-10.0000 F1800.0
G1 X-5.7254 Y4.1500 Z-10.0000 F1800.0
G1 X-8.2500 Y1.6254 Z-10.0000 F1800.0
G1 X-8.2500 Y-4.1500 Z-10.0000 F1800.0
G1 X8.2500 Y-4.1500 Z-10.0000 F1800.0
G1 X8.2500 Y1.6254 Z-10.0000 F1800.0
G1 X5.7254 Y4.1500 Z-10.0000 F1800.0
G1 X0.0000 Y4.1500 Z-10.0000 F1800.0
G0 X0.0000 Y4.1500 Z5.0000
G0 X0.0000 Y5.6500 Z5.0000
G0 X0.0000 Y5.6500 Z-7.0000
G1 X0.0000 Y5.6500 Z-10.0000 F1800.0
G1 X-6.3467 Y5.6500 Z-10.0000 F1800.0
G1 X-9.7500 Y2.2467 Z-10.0000 F1800.0
G1 X-9.7500 Y-5.2772 Z-10.0000 F1800.0
G3 X-9.3772 Y-5.6500 Z-10.0000 I0.2943 J-0.0785 F1800.0
G1 X9.3772 Y-5.6500 Z-10.0000 F1800.0
G3 X9.7500 Y-5.2772 Z-10.0000 I0.0785 J0.2943 F1800.0
G1 X9.7500 Y2.2467 Z-10.0000 F1800.0
G1 X6.3467 Y5.6500 Z-10.0000 F1800.0
G1 X0.0000 Y5.6500 Z-10.0000 F1800.0
G0 X0.0000 Y5.6500 Z5.0000
G0 X0.0000 Y7.1500 Z5.0000
G0 X0.0000 Y7.1500 Z-7.0000
G1 X0.0000 Y7.1500 Z-10.0000 F1800.0
G1 X-6.9680 Y7.1500 Z-10.0000 F1800.0
G1 X-11.2500 Y2.8680 Z-10.0000 F1800.0
G1 X-11.2500 Y-5.3263 Z-10.0000 F1800.0
G3 X-9.4263 Y-7.1500 Z-10.0000 I1.7641 J-0.0596 F1800.0
G1 X9.4263 Y-7.1500 Z-10.0000 F1800.0
G3 X11.2500 Y-5.3263 Z-10.0000 I0.0596 J1.7641 F1800.0
G1 X11.2500 Y2.8680 Z-10.0000 F1800.0
G1 X6.9680 Y7.1500 Z-10.0000 F1800.0
G1 X0.0000 Y7.1500 Z-10.0000 F1800.0
G0 X0.0000 Y7.1500 Z5.0000
G0 X0.0000 Y8.6500 Z5.0000
G0 X0.0000 Y8.6500 Z-7.0000
G1 X0.0000 Y8.6500 Z-10.0000 F1800.0
G1 X-7.5893 Y8.6500 Z-10.0000 F1800.0
G1 X-12.7500 Y3.4893 Z-10.0000 F1800.0
G1 X-12.7500 Y-5.3754 Z-10.0000 F1800.0
G3 X-9.4754 Y-8.6500 Z-10.0000 I3.2540 J-0.0205 F1800.0
G1 X9.4754 Y-8.6500 Z-10.0000 F1800.0
G3 X12.7500 Y-5.3754 Z-10.0000 I0.0205 J3.2540 F1800.0
G1 X12.7500 Y3.4893 Z-10.0000 F1800.0
G1 X7.5893 Y8.6500 Z-10.0000 F1800.0
G1 X0.0000 Y8.6500 Z-10.0000 F1800.0
G1 X0.0000 Y8.6500 Z-12.0000 F1800.0
G1 X-7.5893 Y8.6500 Z-12.0000 F1800.0
G1 X-12.7500 Y3.4893 Z-12.0000 F1800.0
G1 X-12.7500 Y-5.3754 Z-12.0000 F1800.0
G3 X-9.4754 Y-8.6500 Z-12.0000 I3.2540 J-0.0205 F1800.0
G1 X9.4754 Y-8.6500 Z-12.0000 F1800.0
G3 X12.7500 Y-5.3754 Z-12.0000 I0.0205 J3.2540 F1800.0
G1 X12.7500 Y3.4893 Z-12.0000 F1800.0
G1 X7.5893 Y8.6500 Z-12.0000 F1800.0
G1 X0.0000 Y8.6500 Z-12.0000 F1800.0
G0 X0.0000 Y8.6500 Z5.0000
G0 X0.0000 Y7.1500 Z5.0000
G0 X0.0000 Y7.1500 Z-9.0000
G1 X0.0000 Y7.1500 Z-12.0000 F1800.0
G1 X-6.9680 Y7.1500 Z-12.0000 F1800.0
G1 X-11.2500 Y2.8680 Z-12.0000 F1800.0
G1 X-11.2500 Y-5.3263 Z-12.0000 F1800.0
G3 X-9.4263 Y-7.1500 Z-12.0000 I1.7641 J-0.0596 F1800.0
G1 X9.4263 Y-7.1500 Z-12.0000 F1800.0
G3 X11.2500 Y-5.3263 Z-12.0000 I0.0596 J1.7641 F1800.0
G1 X11.2500 Y2.8680 Z-12.0000 F1800.0
G1 X6.9680 Y7.1500 Z-12.0000 F1800.0
G1 X0.0000 Y7.1500 Z-12.0000 F1800.0
G0 X0.0000 Y7.1500 Z5.0000
G0 X0.0000 Y5.6500 Z5.0000
G0 X0.0000 Y5.6500 Z-9.0000
G1 X0.0000 Y5.6500 Z-12.0000 F1800.0
G1 X-6.3467 Y5.6500 Z-12.0000 F1800.0
G1 X-9.7500 Y2.2467 Z-12.0000 F1800.0
G1 X-9.7500 Y-5.2772 Z-12.0000 F1800.0
G3 X-9.3772 Y-5.6500 Z-12.0000 I0.2943 J-0.0785 F1800.0
G1 X9.3772 Y-5.6500 Z-12.0000 F1800.0
G3 X9.7500 Y-5.2772 Z-12.0000 I0.0785 J0.2943 F1800.0
G1 X9.7500 Y2.2467 Z-12.0000 F1800.0
G1 X6.3467 Y5.6500 Z-12.0000 F1800.0
G1 X0.0000 Y5.6500 Z-12.0000 F1800.0
G0 X0.0000 Y5.6500 Z5.0000
G0 X0.0000 Y4.1500 Z5.0000
G0 X0.0000 Y4.1500 Z-9.0000
G1 X0.0000 Y4.1500 Z-12.0000 F1800.0
G1 X-5.7254 Y4.1500 Z-12.0000 F1800.0
G1 X-8.2500 Y1.6254 Z-12.0000 F1800.0
G1 X-8.2500 Y-4.1500 Z-12.0000 F1800.0
G1 X8.2500 Y-4.1500 Z-12.0000 F1800.0
G1 X8.2500 Y1.6254 Z-12.0000 F1800.0
G1 X5.7254 Y4.1500 Z-12.0000 F1800.0
G1 X0.0000 Y4.1500 Z-12.0000 F1800.0
G0 X0.0000 Y4.1500 Z5.0000
G0 X0.0000 Y2.6500 Z5.0000
G0 X0.0000 Y2.6500 Z-9.0000
G1 X0.0000 Y2.6500 Z-12.0000 F1800.0
G1 X-5.1041 Y2.6500 Z-12.0000 F1800.0
G1 X-6.7500 Y1.0041 Z-12.0000 F1800.0
G1 X-6.7500 Y-2.6500 Z-12.0000 F1800.0
G1 X6.7500 Y-2.6500 Z-12.0000 F1800.0
G1 X6.7500 Y1.0041 Z-12.0000 F1800.0
G1 X5.1041 Y2.6500 Z-12.0000 F1800.0
G1 X0.0000 Y2.6500 Z-12.0000 F1800.0
G0 X0.0000 Y2.6500 Z5.0000
G0 X0.0000 Y1.1500 Z5.0000
G0 X0.0000 Y1.1500 Z-9.0000
G1 X0.0000 Y1.1500 Z-12.0000 F1800.0
G1 X-4.4827 Y1.1500 Z-12.0000 F1800.0
G1 X-5.2500 Y0.3827 Z-12.0000 F1800.0
G1 X-5.2500 Y-1.1500 Z-12.0000 F1800.0
G1 X5.2500 Y-1.1500 Z-12.0000 F1800.0
G1 X5.2500 Y0.3827 Z-12.0000 F1800.0
G1 X4.4827 Y1.1500 Z-12.0000 F1800.0
G1 X0.0000 Y1.1500 Z-12.0000 F1800.0
G0 Z5.0000
;end operation: body hole
;begin postamble
M5 M25
G49 H0
G90 G80 G40 G49
M99
