
;Exported by FreeCAD
;Post Processor: centroid_post
;CAM file: /home/androiders/pedalboard cad/pedalboardcut-solid.fcstd
;Output Time: 2019-05-01 18:42:24.240262
G90 G80 G40 G49
;T1=Default_Tool
;T1=Default_Tool
;begin preamble
G53 G00 G17
G21
;begin operation
;Default Tool
M3 S12000
;end operation: Default Tool
;begin operation
;flat surface
G0 Z5.0000
G0
G0 Z0.0000
G1 X1.7000 Y0.0000 Z-2.0000 F2400.0
G1 X1.7000 Y4.2000 Z-2.0000 F2400.0
G1 X-1.7000 Y4.2000 Z-2.0000 F2400.0
G1 X-1.7000 Y-4.2000 Z-2.0000 F2400.0
G1 X1.7000 Y-4.2000 Z-2.0000 F2400.0
G1 X1.7000 Y0.0000 Z-2.0000 F2400.0
G0 X1.7000 Y0.0000 Z5.0000
G0 X3.5000 Y0.0000 Z5.0000
G0 X3.5000 Y0.0000 Z1.0000
G1 X3.5000 Y0.0000 Z-2.0000 F2400.0
G1 X3.5000 Y6.0000 Z-2.0000 F2400.0
G1 X-3.5000 Y6.0000 Z-2.0000 F2400.0
G1 X-3.5000 Y-6.0000 Z-2.0000 F2400.0
G1 X3.5000 Y-6.0000 Z-2.0000 F2400.0
G1 X3.5000 Y0.0000 Z-2.0000 F2400.0
G0 X3.5000 Y0.0000 Z5.0000
G0 X5.3000 Y0.0000 Z5.0000
G0 X5.3000 Y0.0000 Z1.0000
G1 X5.3000 Y0.0000 Z-2.0000 F2400.0
G1 X5.3000 Y7.8000 Z-2.0000 F2400.0
G1 X-5.3000 Y7.8000 Z-2.0000 F2400.0
G1 X-5.3000 Y-7.8000 Z-2.0000 F2400.0
G1 X5.3000 Y-7.8000 Z-2.0000 F2400.0
G1 X5.3000 Y0.0000 Z-2.0000 F2400.0
G0 X5.3000 Y0.0000 Z5.0000
G0 X7.1000 Y0.0000 Z5.0000
G0 X7.1000 Y0.0000 Z1.0000
G1 X7.1000 Y0.0000 Z-2.0000 F2400.0
G1 X7.1000 Y9.6000 Z-2.0000 F2400.0
G1 X-7.1000 Y9.6000 Z-2.0000 F2400.0
G1 X-7.1000 Y-9.6000 Z-2.0000 F2400.0
G1 X7.1000 Y-9.6000 Z-2.0000 F2400.0
G1 X7.1000 Y0.0000 Z-2.0000 F2400.0
G0 X7.1000 Y0.0000 Z5.0000
G0 X8.9000 Y0.0000 Z5.0000
G0 X8.9000 Y0.0000 Z1.0000
G1 X8.9000 Y0.0000 Z-2.0000 F2400.0
G1 X8.9000 Y11.4000 Z-2.0000 F2400.0
G1 X-8.9000 Y11.4000 Z-2.0000 F2400.0
G1 X-8.9000 Y-11.4000 Z-2.0000 F2400.0
G1 X8.9000 Y-11.4000 Z-2.0000 F2400.0
G1 X8.9000 Y0.0000 Z-2.0000 F2400.0
G0 X8.9000 Y0.0000 Z5.0000
G0 X10.7000 Y0.0000 Z5.0000
G0 X10.7000 Y0.0000 Z1.0000
G1 X10.7000 Y0.0000 Z-2.0000 F2400.0
G1 X10.7000 Y13.2000 Z-2.0000 F2400.0
G1 X-10.7000 Y13.2000 Z-2.0000 F2400.0
G1 X-10.7000 Y-13.2000 Z-2.0000 F2400.0
G1 X10.7000 Y-13.2000 Z-2.0000 F2400.0
G1 X10.7000 Y0.0000 Z-2.0000 F2400.0
G0 X10.7000 Y0.0000 Z5.0000
G0 X12.5000 Y0.0000 Z5.0000
G0 X12.5000 Y0.0000 Z1.0000
G1 X12.5000 Y0.0000 Z-2.0000 F2400.0
G1 X12.5000 Y13.4754 Z-2.0000 F2400.0
G3 X10.9754 Y15.0000 Z-2.0000 I-1.5061 J0.0185 F2400.0
G1 X-10.9754 Y15.0000 Z-2.0000 F2400.0
G3 X-12.5000 Y13.4754 Z-2.0000 I-0.0185 J-1.5061 F2400.0
G1 X-12.5000 Y-13.4754 Z-2.0000 F2400.0
G3 X-10.9754 Y-15.0000 Z-2.0000 I1.5061 J-0.0185 F2400.0
G1 X10.9754 Y-15.0000 Z-2.0000 F2400.0
G3 X12.5000 Y-13.4754 Z-2.0000 I0.0185 J1.5061 F2400.0
G1 X12.5000 Y0.0000 Z-2.0000 F2400.0
G0 Z5.0000
;end operation: flat surface
;begin operation
;Default Tool
M3 S12000
;end operation: Default Tool
;begin operation
;hole
G0 Z3.0000
G0
G0 Z0.0000
G1 X0.3623 Y8.9903 Z-4.0000 F2400.0
G3 X-8.9903 Y0.3623 Z-4.0000 I-0.3623 J-8.9903 F2400.0
G3 X-0.3623 Y-8.9903 Z-4.0000 I8.9903 J-0.3623 F2400.0
G1 X-0.3623 Y-10.9903 Z-4.0000 F2400.0
G2 X-10.9918 Y0.4041 Z-4.0000 I0.3608 J10.9918 F2400.0
G2 X0.4429 Y10.9903 Z-4.0000 I10.9903 J-0.4026 F2400.0
G2 X-0.3623 Y-10.9903 Z-4.0000 I-0.4414 J-10.9888 F2400.0
G1 X-0.3623 Y-8.9903 Z-4.0000 F2400.0
G3 X8.9903 Y-0.3623 Z-4.0000 I0.3623 J8.9903 F2400.0
G3 X0.3623 Y8.9903 Z-4.0000 I-8.9903 J0.3623 F2400.0
G1 X0.3623 Y8.9903 Z-4.0000 F2400.0
G2 X8.9903 Y-0.3623 Z-4.0000 I-0.3623 J-8.9903 F2400.0
G2 X-0.3623 Y-8.9903 Z-4.0000 I-8.9903 J0.3623 F2400.0
G2 X-8.9903 Y0.3623 Z-4.0000 I0.3623 J8.9903 F2400.0
G2 X0.3623 Y8.9903 Z-4.0000 I8.9903 J-0.3623 F2400.0
G1 X0.3623 Y8.9903 Z-6.0000 F2400.0
G3 X-8.9903 Y0.3623 Z-6.0000 I-0.3623 J-8.9903 F2400.0
G3 X-0.3623 Y-8.9903 Z-6.0000 I8.9903 J-0.3623 F2400.0
G1 X-0.3623 Y-10.9903 Z-6.0000 F2400.0
G2 X-10.9918 Y0.4041 Z-6.0000 I0.3608 J10.9918 F2400.0
G2 X0.4429 Y10.9903 Z-6.0000 I10.9903 J-0.4026 F2400.0
G2 X-0.3623 Y-10.9903 Z-6.0000 I-0.4414 J-10.9888 F2400.0
G1 X-0.3623 Y-8.9903 Z-6.0000 F2400.0
G3 X8.9903 Y-0.3623 Z-6.0000 I0.3623 J8.9903 F2400.0
G3 X0.3623 Y8.9903 Z-6.0000 I-8.9903 J0.3623 F2400.0
G1 X0.3623 Y8.9903 Z-6.0000 F2400.0
G2 X8.9903 Y-0.3623 Z-6.0000 I-0.3623 J-8.9903 F2400.0
G2 X-0.3623 Y-8.9903 Z-6.0000 I-8.9903 J0.3623 F2400.0
G2 X-8.9903 Y0.3623 Z-6.0000 I0.3623 J8.9903 F2400.0
G2 X0.3623 Y8.9903 Z-6.0000 I8.9903 J-0.3623 F2400.0
G1 X0.3623 Y8.9903 Z-8.0000 F2400.0
G2 X8.9903 Y-0.3623 Z-8.0000 I-0.3623 J-8.9903 F2400.0
G2 X-0.3623 Y-8.9903 Z-8.0000 I-8.9903 J0.3623 F2400.0
G2 X-8.9903 Y0.3623 Z-8.0000 I0.3623 J8.9903 F2400.0
G2 X0.3623 Y8.9903 Z-8.0000 I8.9903 J-0.3623 F2400.0
G1 X0.3623 Y8.9903 Z-8.0000 F2400.0
G3 X-8.9903 Y0.3623 Z-8.0000 I-0.3623 J-8.9903 F2400.0
G3 X-0.3623 Y-8.9903 Z-8.0000 I8.9903 J-0.3623 F2400.0
G1 X-0.3623 Y-10.9903 Z-8.0000 F2400.0
G2 X-10.9918 Y0.4041 Z-8.0000 I0.3608 J10.9918 F2400.0
G2 X0.4429 Y10.9903 Z-8.0000 I10.9903 J-0.4026 F2400.0
G2 X-0.3623 Y-10.9903 Z-8.0000 I-0.4414 J-10.9888 F2400.0
G1 X-0.3623 Y-8.9903 Z-8.0000 F2400.0
G3 X8.9903 Y-0.3623 Z-8.0000 I0.3623 J8.9903 F2400.0
G3 X0.3623 Y8.9903 Z-8.0000 I-8.9903 J0.3623 F2400.0
G1 X0.3623 Y8.9903 Z-10.0000 F2400.0
G2 X8.9903 Y-0.3623 Z-10.0000 I-0.3623 J-8.9903 F2400.0
G2 X-0.3623 Y-8.9903 Z-10.0000 I-8.9903 J0.3623 F2400.0
G2 X-8.9903 Y0.3623 Z-10.0000 I0.3623 J8.9903 F2400.0
G2 X0.3623 Y8.9903 Z-10.0000 I8.9903 J-0.3623 F2400.0
G1 X0.3623 Y8.9903 Z-10.0000 F2400.0
G3 X-8.9903 Y0.3623 Z-10.0000 I-0.3623 J-8.9903 F2400.0
G3 X-0.3623 Y-8.9903 Z-10.0000 I8.9903 J-0.3623 F2400.0
G1 X-0.3623 Y-10.9903 Z-10.0000 F2400.0
G2 X-10.9918 Y0.4041 Z-10.0000 I0.3608 J10.9918 F2400.0
G2 X0.4429 Y10.9903 Z-10.0000 I10.9903 J-0.4026 F2400.0
G2 X-0.3623 Y-10.9903 Z-10.0000 I-0.4414 J-10.9888 F2400.0
G1 X-0.3623 Y-8.9903 Z-10.0000 F2400.0
G3 X8.9903 Y-0.3623 Z-10.0000 I0.3623 J8.9903 F2400.0
G3 X0.3623 Y8.9903 Z-10.0000 I-8.9903 J0.3623 F2400.0
G1 X0.3623 Y8.9903 Z-12.0000 F2400.0
G2 X8.9903 Y-0.3623 Z-12.0000 I-0.3623 J-8.9903 F2400.0
G2 X-0.3623 Y-8.9903 Z-12.0000 I-8.9903 J0.3623 F2400.0
G2 X-8.9903 Y0.3623 Z-12.0000 I0.3623 J8.9903 F2400.0
G2 X0.3623 Y8.9903 Z-12.0000 I8.9903 J-0.3623 F2400.0
G1 X0.3623 Y8.9903 Z-12.0000 F2400.0
G3 X-8.9903 Y0.3623 Z-12.0000 I-0.3623 J-8.9903 F2400.0
G3 X-0.3623 Y-8.9903 Z-12.0000 I8.9903 J-0.3623 F2400.0
G1 X-0.3623 Y-10.9903 Z-12.0000 F2400.0
G2 X-10.9918 Y0.4041 Z-12.0000 I0.3608 J10.9918 F2400.0
G2 X0.4429 Y10.9903 Z-12.0000 I10.9903 J-0.4026 F2400.0
G2 X-0.3623 Y-10.9903 Z-12.0000 I-0.4414 J-10.9888 F2400.0
G1 X-0.3623 Y-8.9903 Z-12.0000 F2400.0
G3 X8.9903 Y-0.3623 Z-12.0000 I0.3623 J8.9903 F2400.0
G3 X0.3623 Y8.9903 Z-12.0000 I-8.9903 J0.3623 F2400.0
G0 Z3.0000
;end operation: hole
;begin postamble
M5 M25
G49 H0
G90 G80 G40 G49
M99
