
;Exported by FreeCAD
;Post Processor: centroid_post
;CAM file: /home/androiders/pedalboardcut-solid.fcstd
;Output Time: 2019-04-27 20:47:18.871670
G90 G80 G40 G49
;T1=Default_Tool
;T1=Default_Tool
;begin preamble
G53 G00 G17
G21
;begin operation
M3 S12000
;end operation: Default Tool
;begin operation
;flat surface
G0 Z5.0000
G0
G0 Z0.0000
G1 X-12.0000 Y13.0043 Z-2.0000 F2400.0
G1 X-12.0000 Y13.4509 Z-2.0000 F2400.0
G2 X-11.3808 Y14.4194 Z-2.0000 I1.0108 J0.0360 F2400.0
G2 X-10.5043 Y14.5000 Z-2.0000 I0.5899 J-1.6085 F2400.0
G1 X-12.0000 Y13.0043 Z-2.0000 F2400.0
G1 X-12.0000 Y10.1759 Z-2.0000 F2400.0
G1 X-7.6759 Y14.5000 Z-2.0000 F2400.0
G1 X-4.8475 Y14.5000 Z-2.0000 F2400.0
G1 X-12.0000 Y7.3475 Z-2.0000 F2400.0
G1 X-12.0000 Y4.5190 Z-2.0000 F2400.0
G1 X-2.0190 Y14.5000 Z-2.0000 F2400.0
G1 X0.8094 Y14.5000 Z-2.0000 F2400.0
G1 X-12.0000 Y1.6906 Z-2.0000 F2400.0
G1 X-12.0000 Y-1.1378 Z-2.0000 F2400.0
G1 X3.6378 Y14.5000 Z-2.0000 F2400.0
G1 X6.4662 Y14.5000 Z-2.0000 F2400.0
G1 X-12.0000 Y-3.9662 Z-2.0000 F2400.0
G1 X-12.0000 Y-6.7947 Z-2.0000 F2400.0
G1 X9.2947 Y14.5000 Z-2.0000 F2400.0
G1 X10.9509 Y14.5000 Z-2.0000 F2400.0
G2 X11.7592 Y14.1361 Z-2.0000 I0.0346 J-1.0028 F2400.0
G1 X-12.0000 Y-9.6231 Z-2.0000 F2400.0
G1 X-12.0000 Y-12.4515 Z-2.0000 F2400.0
G1 X12.0000 Y11.5485 Z-2.0000 F2400.0
G1 X12.0000 Y8.7200 Z-2.0000 F2400.0
G1 X-11.1956 Y-14.4756 Z-2.0000 F2400.0
G3 X-10.9509 Y-14.5000 Z-2.0000 I0.1837 J0.6030 F2400.0
G1 X-8.3916 Y-14.5000 Z-2.0000 F2400.0
G1 X12.0000 Y5.8916 Z-2.0000 F2400.0
G1 X12.0000 Y3.0632 Z-2.0000 F2400.0
G1 X-5.5632 Y-14.5000 Z-2.0000 F2400.0
G1 X-2.7348 Y-14.5000 Z-2.0000 F2400.0
G1 X12.0000 Y0.2348 Z-2.0000 F2400.0
G1 X12.0000 Y-2.5937 Z-2.0000 F2400.0
G1 X0.0937 Y-14.5000 Z-2.0000 F2400.0
G1 X2.9221 Y-14.5000 Z-2.0000 F2400.0
G1 X12.0000 Y-5.4221 Z-2.0000 F2400.0
G1 X12.0000 Y-8.2505 Z-2.0000 F2400.0
G1 X5.7505 Y-14.5000 Z-2.0000 F2400.0
G1 X8.5789 Y-14.5000 Z-2.0000 F2400.0
G1 X12.0000 Y-11.0789 Z-2.0000 F2400.0
G1 X12.0000 Y-13.4509 Z-2.0000 F2400.0
G2 X11.7037 Y-14.2037 Z-2.0000 I-1.0292 J-0.0296 F2400.0
G0 Z5.0000
;end operation: flat surface
;begin operation
M3 S12000
;end operation: Default Tool
;begin operation
;hole
G0 Z3.0000
G0
G0 Z0.0000
G1 X0.3623 Y8.9903 Z-4.0000 F2400.0
G3 X-8.9903 Y0.3623 Z-4.0000 I-0.3623 J-8.9903 F2400.0
G3 X-0.3623 Y-8.9903 Z-4.0000 I8.9903 J-0.3623 F2400.0
G1 X-0.3623 Y-10.9903 Z-4.0000 F2400.0
G2 X-10.9918 Y0.4041 Z-4.0000 I0.3608 J10.9918 F2400.0
G2 X0.4429 Y10.9903 Z-4.0000 I10.9903 J-0.4026 F2400.0
G2 X-0.3623 Y-10.9903 Z-4.0000 I-0.4414 J-10.9888 F2400.0
G1 X-0.3623 Y-8.9903 Z-4.0000 F2400.0
G3 X8.9903 Y-0.3623 Z-4.0000 I0.3623 J8.9903 F2400.0
G3 X0.3623 Y8.9903 Z-4.0000 I-8.9903 J0.3623 F2400.0
G1 X0.3623 Y8.9903 Z-4.0000 F2400.0
G2 X8.9903 Y-0.3623 Z-4.0000 I-0.3623 J-8.9903 F2400.0
G2 X-0.3623 Y-8.9903 Z-4.0000 I-8.9903 J0.3623 F2400.0
G2 X-8.9903 Y0.3623 Z-4.0000 I0.3623 J8.9903 F2400.0
G2 X0.3623 Y8.9903 Z-4.0000 I8.9903 J-0.3623 F2400.0
G1 X0.3623 Y8.9903 Z-6.0000 F2400.0
G3 X-8.9903 Y0.3623 Z-6.0000 I-0.3623 J-8.9903 F2400.0
G3 X-0.3623 Y-8.9903 Z-6.0000 I8.9903 J-0.3623 F2400.0
G1 X-0.3623 Y-10.9903 Z-6.0000 F2400.0
G2 X-10.9918 Y0.4041 Z-6.0000 I0.3608 J10.9918 F2400.0
G2 X0.4429 Y10.9903 Z-6.0000 I10.9903 J-0.4026 F2400.0
G2 X-0.3623 Y-10.9903 Z-6.0000 I-0.4414 J-10.9888 F2400.0
G1 X-0.3623 Y-8.9903 Z-6.0000 F2400.0
G3 X8.9903 Y-0.3623 Z-6.0000 I0.3623 J8.9903 F2400.0
G3 X0.3623 Y8.9903 Z-6.0000 I-8.9903 J0.3623 F2400.0
G1 X0.3623 Y8.9903 Z-6.0000 F2400.0
G2 X8.9903 Y-0.3623 Z-6.0000 I-0.3623 J-8.9903 F2400.0
G2 X-0.3623 Y-8.9903 Z-6.0000 I-8.9903 J0.3623 F2400.0
G2 X-8.9903 Y0.3623 Z-6.0000 I0.3623 J8.9903 F2400.0
G2 X0.3623 Y8.9903 Z-6.0000 I8.9903 J-0.3623 F2400.0
G1 X0.3623 Y8.9903 Z-8.0000 F2400.0
G3 X-8.9903 Y0.3623 Z-8.0000 I-0.3623 J-8.9903 F2400.0
G3 X-0.3623 Y-8.9903 Z-8.0000 I8.9903 J-0.3623 F2400.0
G1 X-0.3623 Y-10.9903 Z-8.0000 F2400.0
G2 X-10.9918 Y0.4041 Z-8.0000 I0.3608 J10.9918 F2400.0
G2 X0.4429 Y10.9903 Z-8.0000 I10.9903 J-0.4026 F2400.0
G2 X-0.3623 Y-10.9903 Z-8.0000 I-0.4414 J-10.9888 F2400.0
G1 X-0.3623 Y-8.9903 Z-8.0000 F2400.0
G3 X8.9903 Y-0.3623 Z-8.0000 I0.3623 J8.9903 F2400.0
G3 X0.3623 Y8.9903 Z-8.0000 I-8.9903 J0.3623 F2400.0
G1 X0.3623 Y8.9903 Z-8.0000 F2400.0
G2 X8.9903 Y-0.3623 Z-8.0000 I-0.3623 J-8.9903 F2400.0
G2 X-0.3623 Y-8.9903 Z-8.0000 I-8.9903 J0.3623 F2400.0
G2 X-8.9903 Y0.3623 Z-8.0000 I0.3623 J8.9903 F2400.0
G2 X0.3623 Y8.9903 Z-8.0000 I8.9903 J-0.3623 F2400.0
G1 X0.3623 Y8.9903 Z-10.0000 F2400.0
G3 X-8.9903 Y0.3623 Z-10.0000 I-0.3623 J-8.9903 F2400.0
G3 X-0.3623 Y-8.9903 Z-10.0000 I8.9903 J-0.3623 F2400.0
G1 X-0.3623 Y-10.9903 Z-10.0000 F2400.0
G2 X-10.9918 Y0.4041 Z-10.0000 I0.3608 J10.9918 F2400.0
G2 X0.4429 Y10.9903 Z-10.0000 I10.9903 J-0.4026 F2400.0
G2 X-0.3623 Y-10.9903 Z-10.0000 I-0.4414 J-10.9888 F2400.0
G1 X-0.3623 Y-8.9903 Z-10.0000 F2400.0
G3 X8.9903 Y-0.3623 Z-10.0000 I0.3623 J8.9903 F2400.0
G3 X0.3623 Y8.9903 Z-10.0000 I-8.9903 J0.3623 F2400.0
G1 X0.3623 Y8.9903 Z-10.0000 F2400.0
G2 X8.9903 Y-0.3623 Z-10.0000 I-0.3623 J-8.9903 F2400.0
G2 X-0.3623 Y-8.9903 Z-10.0000 I-8.9903 J0.3623 F2400.0
G2 X-8.9903 Y0.3623 Z-10.0000 I0.3623 J8.9903 F2400.0
G2 X0.3623 Y8.9903 Z-10.0000 I8.9903 J-0.3623 F2400.0
G1 X0.3623 Y8.9903 Z-12.0000 F2400.0
G2 X8.9903 Y-0.3623 Z-12.0000 I-0.3623 J-8.9903 F2400.0
G2 X-0.3623 Y-8.9903 Z-12.0000 I-8.9903 J0.3623 F2400.0
G2 X-8.9903 Y0.3623 Z-12.0000 I0.3623 J8.9903 F2400.0
G2 X0.3623 Y8.9903 Z-12.0000 I8.9903 J-0.3623 F2400.0
G1 X0.3623 Y8.9903 Z-12.0000 F2400.0
G3 X-8.9903 Y0.3623 Z-12.0000 I-0.3623 J-8.9903 F2400.0
G3 X-0.3623 Y-8.9903 Z-12.0000 I8.9903 J-0.3623 F2400.0
G1 X-0.3623 Y-10.9903 Z-12.0000 F2400.0
G2 X-10.9918 Y0.4041 Z-12.0000 I0.3608 J10.9918 F2400.0
G2 X0.4429 Y10.9903 Z-12.0000 I10.9903 J-0.4026 F2400.0
G2 X-0.3623 Y-10.9903 Z-12.0000 I-0.4414 J-10.9888 F2400.0
G1 X-0.3623 Y-8.9903 Z-12.0000 F2400.0
G3 X8.9903 Y-0.3623 Z-12.0000 I0.3623 J8.9903 F2400.0
G3 X0.3623 Y8.9903 Z-12.0000 I-8.9903 J0.3623 F2400.0
G1 X0.3623 Y8.9903 Z-14.0000 F2400.0
G3 X-8.9903 Y0.3623 Z-14.0000 I-0.3623 J-8.9903 F2400.0
G3 X-0.3623 Y-8.9903 Z-14.0000 I8.9903 J-0.3623 F2400.0
G1 X-0.3623 Y-10.9903 Z-14.0000 F2400.0
G2 X-10.9918 Y0.4041 Z-14.0000 I0.3608 J10.9918 F2400.0
G2 X0.4429 Y10.9903 Z-14.0000 I10.9903 J-0.4026 F2400.0
G2 X-0.3623 Y-10.9903 Z-14.0000 I-0.4414 J-10.9888 F2400.0
G1 X-0.3623 Y-8.9903 Z-14.0000 F2400.0
G3 X8.9903 Y-0.3623 Z-14.0000 I0.3623 J8.9903 F2400.0
G3 X0.3623 Y8.9903 Z-14.0000 I-8.9903 J0.3623 F2400.0
G1 X0.3623 Y8.9903 Z-14.0000 F2400.0
G2 X8.9903 Y-0.3623 Z-14.0000 I-0.3623 J-8.9903 F2400.0
G2 X-0.3623 Y-8.9903 Z-14.0000 I-8.9903 J0.3623 F2400.0
G2 X-8.9903 Y0.3623 Z-14.0000 I0.3623 J8.9903 F2400.0
G2 X0.3623 Y8.9903 Z-14.0000 I8.9903 J-0.3623 F2400.0
G1 X0.3623 Y8.9903 Z-15.0000 F2400.0
G2 X8.9903 Y-0.3623 Z-15.0000 I-0.3623 J-8.9903 F2400.0
G2 X-0.3623 Y-8.9903 Z-15.0000 I-8.9903 J0.3623 F2400.0
G2 X-8.9903 Y0.3623 Z-15.0000 I0.3623 J8.9903 F2400.0
G2 X0.3623 Y8.9903 Z-15.0000 I8.9903 J-0.3623 F2400.0
G1 X0.3623 Y8.9903 Z-15.0000 F2400.0
G3 X-8.9903 Y0.3623 Z-15.0000 I-0.3623 J-8.9903 F2400.0
G3 X-0.3623 Y-8.9903 Z-15.0000 I8.9903 J-0.3623 F2400.0
G1 X-0.3623 Y-10.9903 Z-15.0000 F2400.0
G2 X-10.9918 Y0.4041 Z-15.0000 I0.3608 J10.9918 F2400.0
G2 X0.4429 Y10.9903 Z-15.0000 I10.9903 J-0.4026 F2400.0
G2 X-0.3623 Y-10.9903 Z-15.0000 I-0.4414 J-10.9888 F2400.0
G1 X-0.3623 Y-8.9903 Z-15.0000 F2400.0
G3 X8.9903 Y-0.3623 Z-15.0000 I0.3623 J8.9903 F2400.0
G3 X0.3623 Y8.9903 Z-15.0000 I-8.9903 J0.3623 F2400.0
G0 Z3.0000
;end operation: hole
;begin postamble
M5 M25
G49 H0
G90 G80 G40 G49
M99
